filter/trong.CUBE
#Created by: Adobe Photoshop Export Color Lookup Plugin
TITLE "IMG_9966.JPG"
#LUT size
LUT_3D_SIZE 32
#data domain
DOMAIN_MIN 0.0 0.0 0.0
DOMAIN_MAX 1.0 1.0 1.0
#LUT data points
0.056244 0.059723 0.053925
0.061066 0.060028 0.053711
0.077240 0.059265 0.053375
0.099426 0.058411 0.052887
0.124634 0.057220 0.052612
0.151245 0.056152 0.051361
0.178802 0.054871 0.050659
0.207794 0.053009 0.050232
0.235931 0.051880 0.049011
0.265381 0.050140 0.048553
0.294373 0.048767 0.047546
0.324066 0.046967 0.047150
0.353210 0.045624 0.046539
0.382935 0.044067 0.045807
0.412811 0.042450 0.045166
0.442932 0.040649 0.044708
0.472168 0.039337 0.043549
0.502289 0.037567 0.043182
0.532898 0.035645 0.042664
0.562927 0.033936 0.041901
0.592987 0.032227 0.041138
0.623505 0.030365 0.040161
0.654144 0.028442 0.039581
0.684082 0.026825 0.038208
0.714630 0.024963 0.037170
0.744934 0.023193 0.035645
0.775360 0.021362 0.034180
0.806122 0.019470 0.032593
0.836884 0.017609 0.034027
0.867554 0.015778 0.035736
0.898010 0.013977 0.037720
0.928894 0.012146 0.039703
0.056335 0.065735 0.054169
0.060974 0.066101 0.054413
0.077728 0.065155 0.053772
0.099182 0.064575 0.053436
0.123749 0.063660 0.052490
0.151428 0.061707 0.052185
0.179016 0.060333 0.051147
0.207458 0.058655 0.050415
0.235962 0.057159 0.049255
0.264618 0.055603 0.048645
0.293884 0.053894 0.048035
0.323334 0.052124 0.047241
0.352966 0.050293 0.046478
0.382874 0.048309 0.045990
0.412720 0.046417 0.045166
0.442108 0.044739 0.044189
0.472137 0.042786 0.043640
0.501984 0.041016 0.042908
0.531708 0.039215 0.042206
0.562134 0.037201 0.041443
0.591858 0.035400 0.040497
0.621979 0.033508 0.039581
0.652374 0.031433 0.038666
0.682739 0.029449 0.037567
0.713135 0.027435 0.036346
0.743774 0.025360 0.035187
0.774872 0.023193 0.033966
0.804810 0.021301 0.032288
0.835327 0.019318 0.032532
0.866119 0.017273 0.034058
0.896912 0.015259 0.035980
0.927155 0.013336 0.037598
0.056793 0.082886 0.053955
0.062836 0.082520 0.054260
0.077209 0.083130 0.054962
0.098907 0.082214 0.054688
0.124054 0.080658 0.053772
0.150574 0.078979 0.053192
0.178589 0.076935 0.052338
0.206543 0.075104 0.051331
0.235352 0.072906 0.050720
0.263916 0.071014 0.049530
0.293213 0.068787 0.048706
0.322357 0.066650 0.047974
0.352173 0.064087 0.047638
0.381348 0.062103 0.046570
0.411041 0.059784 0.045685
0.440643 0.057404 0.045105
0.470612 0.054932 0.043945
0.500153 0.052582 0.043091
0.529999 0.050110 0.042267
0.560150 0.047394 0.041504
0.589813 0.045013 0.040192
0.619629 0.042450 0.039001
0.649475 0.039856 0.037720
0.679504 0.037201 0.036285
0.709808 0.034485 0.035095
0.739685 0.032043 0.033569
0.769928 0.029541 0.032166
0.799988 0.027069 0.030518
0.830444 0.024536 0.028931
0.860962 0.021973 0.028015
0.891449 0.019470 0.029907
0.922516 0.016876 0.032104
0.059448 0.105164 0.054382
0.063446 0.105865 0.054504
0.078918 0.105835 0.055145
0.099091 0.106537 0.055695
0.123627 0.105286 0.055481
0.150574 0.102814 0.054443
0.178070 0.100494 0.053436
0.206299 0.097870 0.052643
0.235016 0.095093 0.051971
0.263519 0.092529 0.051300
0.292603 0.089722 0.050537
0.321808 0.086975 0.049622
0.350861 0.084259 0.048553
0.380707 0.081055 0.048065
0.410004 0.078217 0.047058
0.439453 0.075317 0.046112
0.468933 0.072327 0.045288
0.498383 0.069336 0.044250
0.528198 0.066101 0.043427
0.557556 0.063171 0.042145
0.587311 0.059998 0.040955
0.617126 0.056641 0.040039
0.646942 0.053345 0.038635
0.676239 0.050262 0.037292
0.706024 0.046906 0.035828
0.736023 0.043396 0.034363
0.765594 0.040100 0.032623
0.795258 0.036682 0.030762
0.825104 0.033173 0.028809
0.855042 0.029633 0.026581
0.884674 0.026093 0.024292
0.914185 0.022644 0.022430
0.061218 0.130737 0.054626
0.065979 0.131104 0.054657
0.080688 0.131470 0.055237
0.101196 0.131989 0.055664
0.124481 0.132477 0.056732
0.150787 0.130554 0.056213
0.178009 0.127563 0.055725
0.205872 0.124603 0.054749
0.234467 0.121185 0.054016
0.262970 0.118011 0.052826
0.291962 0.114532 0.052063
0.321075 0.111084 0.051086
0.350281 0.107483 0.050446
0.379639 0.103943 0.049500
0.409027 0.100281 0.048462
0.438477 0.096497 0.047821
0.467743 0.092926 0.046722
0.497070 0.089294 0.045563
0.526825 0.085327 0.044830
0.556274 0.081696 0.043579
0.585693 0.077881 0.042511
0.615143 0.074158 0.041351
0.644745 0.070190 0.040131
0.674011 0.066528 0.038727
0.703339 0.062805 0.037292
0.732819 0.058838 0.035858
0.762604 0.054535 0.034149
0.791840 0.050659 0.032440
0.821259 0.046692 0.030518
0.850739 0.042511 0.028503
0.880066 0.038422 0.026306
0.909393 0.034302 0.023987
0.063538 0.157379 0.054840
0.068207 0.157684 0.054840
0.083191 0.157959 0.055206
0.102478 0.158997 0.056061
0.125732 0.159546 0.056793
0.150818 0.159912 0.057587
0.177612 0.158234 0.057129
0.205933 0.154846 0.056671
0.234528 0.151611 0.055603
0.262634 0.148682 0.054749
0.291656 0.145386 0.053680
0.320557 0.141968 0.053284
0.349792 0.138611 0.052338
0.379425 0.134857 0.051422
0.408600 0.131561 0.050415
0.437836 0.128204 0.049347
0.467133 0.124725 0.048523
0.496429 0.121338 0.047455
0.525818 0.117798 0.046265
0.555176 0.114349 0.045258
0.584564 0.110748 0.043976
0.614044 0.107025 0.042877
0.643127 0.103638 0.041534
0.672577 0.099884 0.040436
0.701874 0.096252 0.038940
0.731171 0.092499 0.037506
0.760498 0.088715 0.035919
0.789734 0.085052 0.034241
0.818909 0.081299 0.032440
0.848236 0.077301 0.030548
0.877075 0.073700 0.028412
0.906158 0.069916 0.026245
0.066193 0.184631 0.054596
0.071167 0.184753 0.054749
0.084351 0.185822 0.055542
0.104889 0.186249 0.056152
0.127869 0.186829 0.057129
0.152740 0.187317 0.057800
0.178162 0.188049 0.058594
0.205566 0.186310 0.058350
0.234070 0.183197 0.057495
0.262604 0.180054 0.056763
0.291473 0.176849 0.056152
0.320679 0.173553 0.055145
0.349792 0.170319 0.054138
0.378632 0.167419 0.053009
0.408142 0.163940 0.052094
0.437103 0.160797 0.051270
0.466766 0.157257 0.050323
0.496063 0.153839 0.049469
0.525269 0.150635 0.048187
0.554749 0.147186 0.047028
0.583862 0.143860 0.046173
0.613129 0.140503 0.044769
0.642365 0.137177 0.043518
0.671661 0.133545 0.042206
0.700806 0.130157 0.040924
0.729919 0.126770 0.039307
0.759003 0.123291 0.037750
0.788177 0.119690 0.036224
0.817230 0.116089 0.034576
0.846252 0.112488 0.032715
0.875183 0.109070 0.030579
0.904327 0.105164 0.028534
0.069153 0.212158 0.054077
0.073914 0.212311 0.054657
0.087799 0.212982 0.055450
0.106964 0.213898 0.056549
0.130127 0.214447 0.057343
0.154144 0.215271 0.058136
0.180267 0.215607 0.059235
0.206421 0.216217 0.059906
0.234192 0.214478 0.059753
0.262482 0.211700 0.058960
0.291595 0.208588 0.057983
0.320496 0.205536 0.056946
0.349335 0.202545 0.056305
0.378693 0.199341 0.055267
0.407990 0.196198 0.054230
0.437164 0.193085 0.053253
0.466400 0.189972 0.052155
0.495422 0.186920 0.051178
0.525024 0.183502 0.050110
0.554108 0.180420 0.049072
0.583374 0.177185 0.047791
0.612762 0.173889 0.046722
0.641815 0.170563 0.045654
0.670929 0.167328 0.044281
0.700073 0.164093 0.042816
0.729218 0.160736 0.041443
0.758362 0.157349 0.039948
0.787323 0.154053 0.038300
0.816406 0.150543 0.036682
0.845337 0.147156 0.034882
0.874176 0.143799 0.032959
0.903046 0.140472 0.030853
0.073242 0.239136 0.054474
0.077026 0.239838 0.054810
0.090393 0.240784 0.055237
0.110046 0.241455 0.056427
0.132111 0.242401 0.057251
0.156860 0.242859 0.058350
0.181854 0.243683 0.059418
0.208160 0.244202 0.060089
0.234955 0.244659 0.061035
0.263092 0.242889 0.060944
0.291656 0.240204 0.059845
0.320496 0.237335 0.059204
0.349579 0.234375 0.058197
0.378540 0.231567 0.057068
0.407867 0.228394 0.056549
0.437042 0.225525 0.055054
0.466217 0.222473 0.054321
0.495544 0.219421 0.053223
0.524689 0.216492 0.051941
0.554047 0.213348 0.051025
0.583130 0.210358 0.049957
0.612335 0.207275 0.048553
0.641632 0.204010 0.047638
0.670624 0.201019 0.046295
0.699890 0.197632 0.045105
0.728912 0.194611 0.043518
0.757721 0.191589 0.042145
0.786926 0.188263 0.040436
0.815735 0.185120 0.038788
0.844604 0.181885 0.037109
0.873413 0.178650 0.035217
0.902313 0.175293 0.033325
0.076569 0.266937 0.053955
0.080933 0.267242 0.054382
0.093842 0.268280 0.055298
0.112671 0.269287 0.056732
0.134857 0.270142 0.057587
0.158478 0.271118 0.058563
0.183899 0.271698 0.059326
0.210052 0.272247 0.060028
0.236694 0.272766 0.061035
0.263733 0.273285 0.061951
0.291840 0.271637 0.061920
0.320679 0.268982 0.060822
0.349640 0.266144 0.060303
0.378723 0.263367 0.059265
0.407959 0.260559 0.058228
0.437042 0.257751 0.057281
0.466248 0.254852 0.056488
0.495544 0.251984 0.055328
0.524780 0.249023 0.054169
0.554047 0.246033 0.053253
0.583160 0.243195 0.051910
0.612335 0.240295 0.050781
0.641449 0.237427 0.049591
0.670685 0.234222 0.048553
0.699554 0.231476 0.047058
0.728607 0.228455 0.045715
0.757721 0.225342 0.044312
0.786591 0.222412 0.042694
0.815552 0.219269 0.041168
0.844391 0.216248 0.039307
0.873138 0.213135 0.037628
0.901886 0.210083 0.035675
0.079865 0.294708 0.053864
0.084656 0.294800 0.054138
0.097412 0.295929 0.054749
0.115814 0.297028 0.056244
0.137604 0.297974 0.057617
0.161255 0.298920 0.058380
0.186401 0.299591 0.059204
0.212311 0.300201 0.060394
0.238586 0.300842 0.061279
0.265472 0.301392 0.062225
0.292938 0.301819 0.062988
0.320862 0.300446 0.062866
0.349945 0.297699 0.061981
0.378967 0.295044 0.061340
0.408142 0.292358 0.060303
0.437225 0.289703 0.059357
0.466553 0.286926 0.058258
0.495575 0.284363 0.057404
0.524902 0.281494 0.056305
0.554077 0.278748 0.055389
0.583313 0.275970 0.054108
0.612396 0.273132 0.052948
0.641602 0.270325 0.051758
0.670746 0.267395 0.050720
0.699677 0.264648 0.049316
0.728699 0.261841 0.047974
0.757812 0.258850 0.046600
0.786591 0.256042 0.045013
0.815521 0.253204 0.043304
0.844421 0.250275 0.041718
0.873138 0.247284 0.040070
0.901794 0.244507 0.038116
0.084259 0.322174 0.053040
0.088501 0.322479 0.053741
0.101135 0.323456 0.054840
0.119232 0.324615 0.056244
0.140472 0.325867 0.057007
0.163971 0.326721 0.058594
0.188721 0.327606 0.059418
0.214600 0.328186 0.060333
0.240692 0.328888 0.061401
0.267365 0.329407 0.062714
0.294434 0.330048 0.063324
0.321960 0.330475 0.064209
0.350250 0.329010 0.064148
0.379578 0.326385 0.063263
0.408447 0.324005 0.062225
0.437592 0.321381 0.061554
0.466766 0.318817 0.060516
0.496033 0.316223 0.059479
0.525269 0.313629 0.058350
0.554352 0.310944 0.057678
0.583527 0.308350 0.056427
0.612671 0.305695 0.055267
0.641815 0.302979 0.054138
0.670929 0.300323 0.052856
0.699890 0.297638 0.051666
0.728943 0.294952 0.050201
0.757996 0.292236 0.048767
0.786865 0.289551 0.047211
0.815613 0.286804 0.045746
0.844482 0.283997 0.044159
0.873199 0.281372 0.042389
0.901917 0.278534 0.040680
0.089325 0.349243 0.052734
0.092712 0.350006 0.053223
0.105377 0.350861 0.054260
0.123047 0.352203 0.055573
0.143738 0.353577 0.057281
0.166748 0.354706 0.058228
0.191132 0.355591 0.059479
0.216827 0.356232 0.060425
0.242798 0.356964 0.061401
0.269562 0.357513 0.062500
0.296265 0.358215 0.063507
0.323730 0.358704 0.064301
0.351379 0.359070 0.065582
0.379852 0.357635 0.065186
0.408905 0.355225 0.064240
0.437958 0.352905 0.063232
0.467224 0.350372 0.062622
0.496429 0.347900 0.061859
0.525543 0.345490 0.060638
0.554901 0.342896 0.059601
0.583954 0.340485 0.058533
0.613098 0.337982 0.057465
0.642212 0.335541 0.056061
0.671326 0.332916 0.055084
0.700348 0.330444 0.053711
0.729431 0.327759 0.052490
0.758270 0.325317 0.051056
0.787140 0.322754 0.049561
0.815979 0.320129 0.048096
0.844879 0.317505 0.046600
0.873596 0.314941 0.044830
0.902374 0.312225 0.043060
0.093506 0.376862 0.052368
0.097595 0.377258 0.052734
0.109436 0.378448 0.054047
0.126434 0.380035 0.055389
0.147339 0.381195 0.057159
0.170105 0.382385 0.058044
0.194336 0.383270 0.059479
0.219391 0.384216 0.060455
0.245148 0.384979 0.061462
0.271576 0.385681 0.062653
0.298401 0.386261 0.063751
0.325470 0.386902 0.064484
0.353241 0.387299 0.065491
0.380951 0.387848 0.066315
0.409424 0.386414 0.066193
0.438568 0.383972 0.065643
0.467621 0.381775 0.064606
0.496826 0.379517 0.063599
0.526093 0.377075 0.062866
0.555267 0.374786 0.061737
0.584381 0.372406 0.060760
0.613464 0.370117 0.059692
0.642700 0.367645 0.058624
0.671753 0.365265 0.057343
0.700775 0.362915 0.055969
0.729828 0.360474 0.054779
0.758759 0.358002 0.053406
0.787689 0.355530 0.052002
0.816528 0.353180 0.050568
0.845367 0.350616 0.049042
0.874115 0.348267 0.047150
0.902710 0.345764 0.045685
0.098175 0.404327 0.051575
0.102417 0.404510 0.052185
0.113281 0.406128 0.053711
0.130524 0.407501 0.055084
0.150543 0.409058 0.056549
0.173279 0.410095 0.058075
0.196930 0.411285 0.059448
0.221924 0.412170 0.060547
0.247681 0.412903 0.061584
0.274170 0.413605 0.062408
0.300720 0.414337 0.063568
0.327728 0.414917 0.064850
0.354980 0.415527 0.065643
0.382721 0.416016 0.066559
0.410522 0.416473 0.067871
0.439117 0.415009 0.067322
0.468384 0.412750 0.066864
0.497467 0.410614 0.065765
0.526520 0.408478 0.065002
0.555817 0.406281 0.063904
0.584961 0.404083 0.062988
0.614075 0.401825 0.061951
0.643250 0.399597 0.060577
0.672363 0.397308 0.059387
0.701416 0.395081 0.058075
0.730408 0.392792 0.056915
0.759430 0.390503 0.055603
0.788269 0.388214 0.054382
0.817169 0.385895 0.052826
0.845917 0.383606 0.051300
0.874695 0.381287 0.049652
0.903351 0.378967 0.048065
0.103333 0.431549 0.051086
0.107178 0.431946 0.051727
0.118042 0.433472 0.052887
0.134766 0.434937 0.054352
0.154144 0.436707 0.056305
0.176514 0.437836 0.057892
0.200104 0.439026 0.059021
0.225067 0.439941 0.060211
0.250427 0.440826 0.061340
0.276520 0.441620 0.062500
0.302917 0.442383 0.063690
0.329742 0.442963 0.064941
0.357025 0.443573 0.065887
0.384674 0.444092 0.066833
0.412262 0.444611 0.068024
0.440216 0.445099 0.069122
0.469116 0.443542 0.068481
0.498199 0.441620 0.067566
0.527374 0.439484 0.066925
0.556519 0.437408 0.066132
0.585602 0.435455 0.064880
0.614807 0.433319 0.063934
0.643951 0.431183 0.062836
0.673004 0.429108 0.061707
0.702026 0.427032 0.060394
0.731079 0.424866 0.059265
0.760071 0.422729 0.058014
0.788940 0.420563 0.056549
0.817780 0.418365 0.055267
0.846649 0.416199 0.053833
0.875366 0.414093 0.052185
0.904053 0.411896 0.050598
0.108643 0.458832 0.050323
0.112061 0.459412 0.050720
0.123108 0.460663 0.052216
0.139008 0.462524 0.053772
0.158325 0.464142 0.055878
0.180115 0.465515 0.057526
0.203430 0.466827 0.058777
0.227875 0.467865 0.060028
0.253052 0.468872 0.061249
0.279022 0.469574 0.062469
0.305267 0.470367 0.063721
0.332062 0.471039 0.064941
0.359161 0.471649 0.065887
0.386597 0.472260 0.066833
0.414246 0.472778 0.068176
0.442139 0.473297 0.068817
0.469910 0.473755 0.070526
0.499023 0.472168 0.069916
0.528168 0.470276 0.068939
0.557220 0.468445 0.067780
0.586365 0.466553 0.066956
0.615540 0.464539 0.066040
0.644714 0.462585 0.065033
0.673737 0.460632 0.063904
0.702850 0.458588 0.062683
0.731781 0.456635 0.061523
0.760895 0.454620 0.060364
0.789764 0.452576 0.058929
0.818512 0.450623 0.057617
0.847443 0.448547 0.056244
0.876129 0.446533 0.054657
0.904877 0.444489 0.052948
0.114197 0.485992 0.049438
0.117401 0.486603 0.050293
0.127808 0.488098 0.051575
0.143433 0.489868 0.053589
0.162537 0.491608 0.055359
0.183716 0.493195 0.057159
0.206879 0.494446 0.058380
0.231049 0.495575 0.059723
0.255981 0.496643 0.061005
0.281677 0.497498 0.062225
0.307770 0.498383 0.063538
0.334320 0.499054 0.064850
0.361298 0.499786 0.065765
0.388702 0.500336 0.066711
0.416260 0.500885 0.068085
0.443970 0.501373 0.069153
0.471924 0.501923 0.070160
0.499878 0.502411 0.071533
0.529022 0.500793 0.070801
0.558136 0.499054 0.069763
0.587219 0.497253 0.069061
0.616394 0.495422 0.068237
0.645569 0.493652 0.067169
0.674591 0.491791 0.066071
0.703644 0.489960 0.064819
0.732727 0.488159 0.063751
0.761719 0.486267 0.062561
0.790710 0.484406 0.061249
0.819519 0.482422 0.060059
0.848328 0.480652 0.058380
0.877014 0.478699 0.057098
0.905792 0.476837 0.055389
0.119537 0.513397 0.048309
0.122986 0.513733 0.049164
0.132599 0.515564 0.050903
0.147797 0.517365 0.052979
0.166534 0.519287 0.054535
0.187561 0.520813 0.056335
0.210358 0.522125 0.058105
0.234100 0.523438 0.059448
0.258850 0.524445 0.061249
0.284302 0.525513 0.062195
0.310516 0.526123 0.063599
0.336884 0.526978 0.064514
0.363708 0.527740 0.065460
0.391052 0.528381 0.066467
0.418457 0.528931 0.067871
0.445953 0.529449 0.069244
0.473785 0.529999 0.070343
0.501831 0.530487 0.071350
0.529907 0.530945 0.072845
0.559082 0.529388 0.071960
0.588165 0.527740 0.071228
0.617310 0.526093 0.070038
0.646454 0.524445 0.069092
0.675629 0.522736 0.068115
0.704529 0.521057 0.067169
0.733551 0.519348 0.066101
0.762665 0.517609 0.064728
0.791565 0.515869 0.063690
0.820496 0.514130 0.062256
0.849304 0.512360 0.060913
0.877991 0.510651 0.059387
0.906769 0.508911 0.057983
0.125122 0.540527 0.047485
0.128296 0.540985 0.048340
0.138000 0.542694 0.050018
0.153015 0.544525 0.052277
0.171021 0.546570 0.053802
0.191620 0.548218 0.056183
0.213684 0.549866 0.057709
0.237518 0.551056 0.059143
0.261932 0.552216 0.060547
0.287384 0.553162 0.061981
0.313263 0.554016 0.063385
0.339508 0.554901 0.064331
0.366302 0.555542 0.065765
0.393250 0.556305 0.066772
0.420624 0.556915 0.067810
0.448029 0.557495 0.069214
0.475922 0.558014 0.070251
0.503845 0.558563 0.071381
0.531952 0.559082 0.072418
0.560120 0.559509 0.073730
0.589142 0.557983 0.073120
0.618286 0.556488 0.072327
0.647308 0.554962 0.071381
0.676483 0.553436 0.070068
0.705444 0.551819 0.069611
0.734589 0.550201 0.068359
0.763550 0.548737 0.066895
0.792542 0.547058 0.065948
0.821472 0.545502 0.064758
0.850250 0.543915 0.063232
0.879059 0.542236 0.062042
0.907837 0.540558 0.060669
0.130615 0.567810 0.046753
0.133789 0.568298 0.047211
0.143311 0.569855 0.049347
0.157867 0.571899 0.050751
0.175537 0.573914 0.053284
0.195648 0.575745 0.055267
0.217743 0.577332 0.056915
0.240936 0.578766 0.058380
0.265259 0.579956 0.059937
0.290344 0.580994 0.061371
0.316193 0.581848 0.062775
0.342133 0.582855 0.063812
0.368866 0.583435 0.065369
0.395721 0.584229 0.066345
0.422791 0.584900 0.067780
0.450378 0.585571 0.068481
0.478058 0.586029 0.069977
0.505859 0.586578 0.071472
0.533844 0.587158 0.072449
0.561981 0.587585 0.073914
0.590271 0.588013 0.074738
0.619476 0.586517 0.074127
0.648438 0.585236 0.073242
0.677582 0.583801 0.072266
0.706635 0.582428 0.071228
0.735687 0.580963 0.070282
0.764648 0.579468 0.069244
0.793610 0.578033 0.068024
0.822540 0.576508 0.066956
0.851349 0.575073 0.065704
0.880188 0.573547 0.064301
0.908997 0.572113 0.062744
0.136261 0.595032 0.045593
0.139618 0.595398 0.046417
0.148560 0.597168 0.048248
0.162842 0.599121 0.050171
0.180298 0.601227 0.052246
0.199799 0.603271 0.054382
0.221710 0.604797 0.056488
0.244690 0.606232 0.058105
0.268524 0.607635 0.059601
0.293579 0.608734 0.060730
0.318939 0.609802 0.062256
0.345062 0.610626 0.063354
0.371368 0.611481 0.064819
0.398285 0.612213 0.065918
0.425293 0.612885 0.067413
0.452667 0.613495 0.068512
0.480255 0.614014 0.070068
0.507935 0.614655 0.071198
0.535828 0.615143 0.072632
0.563934 0.615723 0.073669
0.592072 0.616180 0.075104
0.620483 0.616486 0.076233
0.649628 0.615204 0.075043
0.678772 0.613922 0.074158
0.707825 0.612579 0.073517
0.736847 0.611298 0.072327
0.765839 0.610016 0.071320
0.794708 0.608673 0.070435
0.823730 0.607300 0.069427
0.852539 0.605927 0.068207
0.881409 0.604675 0.066620
0.910126 0.603271 0.065338
0.142426 0.622009 0.044922
0.145538 0.622528 0.045288
0.154297 0.624329 0.046692
0.167969 0.626465 0.049103
0.185028 0.628510 0.051361
0.204437 0.630554 0.053558
0.225708 0.632355 0.055267
0.248291 0.633972 0.056915
0.272247 0.635254 0.058624
0.296814 0.636383 0.060577
0.321930 0.637573 0.061646
0.347839 0.638428 0.063232
0.374115 0.639282 0.064392
0.400818 0.640015 0.066040
0.427795 0.640778 0.067078
0.455048 0.641449 0.068298
0.482635 0.642059 0.069427
0.510101 0.642670 0.070862
0.538025 0.643188 0.072052
0.565887 0.643768 0.073425
0.594147 0.644287 0.074554
0.622406 0.644714 0.075989
0.650940 0.644867 0.076935
0.679962 0.643646 0.076477
0.709015 0.642609 0.075409
0.738068 0.641449 0.074280
0.767059 0.640167 0.073730
0.795990 0.638977 0.072662
0.824951 0.637787 0.071381
0.853851 0.636627 0.070221
0.882599 0.635345 0.069214
0.911407 0.634277 0.067657
0.148712 0.649139 0.043335
0.151001 0.649841 0.044281
0.159912 0.651428 0.046112
0.173401 0.653595 0.048004
0.190094 0.655731 0.050354
0.209076 0.657837 0.052612
0.229797 0.659851 0.054474
0.252289 0.661469 0.056183
0.275787 0.662842 0.057953
0.300110 0.664062 0.059998
0.325195 0.665161 0.061584
0.350830 0.666168 0.062805
0.377045 0.667084 0.063965
0.403442 0.667877 0.065643
0.430298 0.668701 0.066711
0.457428 0.669373 0.067932
0.484833 0.670013 0.069397
0.512421 0.670624 0.070587
0.540222 0.671204 0.071686
0.568115 0.671692 0.073334
0.596191 0.672241 0.074402
0.624481 0.672668 0.075867
0.652679 0.673218 0.077240
0.681244 0.673248 0.078430
0.710205 0.672302 0.077362
0.739319 0.671234 0.076691
0.768402 0.670197 0.075470
0.797394 0.669128 0.074463
0.826202 0.668030 0.073853
0.855164 0.666992 0.072479
0.884003 0.665924 0.071198
0.912811 0.664886 0.069763
0.154755 0.676208 0.042206
0.157257 0.676910 0.042786
0.165710 0.678589 0.044586
0.178772 0.680664 0.047058
0.194916 0.683044 0.049316
0.213837 0.685059 0.051758
0.234009 0.687195 0.054077
0.256104 0.688873 0.055939
0.279388 0.690338 0.057678
0.303589 0.691681 0.059387
0.328339 0.692902 0.060608
0.353973 0.693848 0.062378
0.379944 0.694855 0.063477
0.406342 0.695618 0.065186
0.433075 0.696503 0.065948
0.460052 0.697174 0.067566
0.487335 0.697876 0.068726
0.514862 0.698517 0.069946
0.542511 0.699097 0.071472
0.570343 0.699677 0.072998
0.598328 0.700256 0.074097
0.626404 0.700745 0.075592
0.654663 0.701233 0.076996
0.682983 0.701721 0.078308
0.711639 0.701721 0.079285
0.740601 0.700775 0.078674
0.769714 0.699829 0.077850
0.798645 0.699005 0.076843
0.827637 0.698029 0.075684
0.856506 0.697113 0.074738
0.885315 0.696136 0.073761
0.914124 0.695190 0.072418
0.161011 0.703369 0.041016
0.163269 0.704132 0.041534
0.171844 0.705566 0.043243
0.184204 0.707947 0.045868
0.200012 0.710297 0.048309
0.218506 0.712463 0.050659
0.238556 0.714600 0.052643
0.260376 0.716339 0.054474
0.283325 0.717896 0.056396
0.307190 0.719238 0.058563
0.331909 0.720490 0.059845
0.357178 0.721588 0.061554
0.382965 0.722595 0.062836
0.409149 0.723480 0.064514
0.435822 0.724335 0.065399
0.462616 0.725098 0.067047
0.489838 0.725769 0.068298
0.517273 0.726440 0.069458
0.544861 0.727051 0.071075
0.572601 0.727539 0.072601
0.600525 0.728149 0.073822
0.628571 0.728699 0.075195
0.656738 0.729248 0.076630
0.684967 0.729645 0.078430
0.713318 0.730194 0.079681
0.742035 0.730103 0.080475
0.771118 0.729309 0.079742
0.800079 0.728638 0.078430
0.829010 0.727814 0.077667
0.857941 0.726959 0.076782
0.886871 0.726166 0.075684
0.915619 0.725372 0.074554
0.166962 0.730591 0.039795
0.169586 0.731079 0.040588
0.177246 0.732880 0.042450
0.189636 0.735168 0.044556
0.205444 0.737396 0.047028
0.223267 0.739807 0.049469
0.243256 0.741852 0.051544
0.264679 0.743652 0.053864
0.287354 0.745270 0.055847
0.311005 0.746765 0.057709
0.335297 0.748077 0.059479
0.360474 0.749298 0.060791
0.386108 0.750336 0.062164
0.412201 0.751190 0.063812
0.438721 0.752045 0.065094
0.465424 0.752899 0.066345
0.492371 0.753662 0.067993
0.519745 0.754303 0.069244
0.547241 0.754913 0.070831
0.574890 0.755554 0.072021
0.602722 0.756042 0.073669
0.630707 0.756622 0.075134
0.658966 0.757233 0.076141
0.687103 0.757690 0.077637
0.715424 0.758209 0.078979
0.743927 0.758636 0.080597
0.772614 0.758575 0.081146
0.801636 0.757874 0.080658
0.830444 0.757233 0.079956
0.859467 0.756592 0.078735
0.888336 0.755920 0.077698
0.917145 0.755219 0.076721
0.173340 0.757538 0.038818
0.175720 0.758209 0.039307
0.183594 0.759888 0.041016
0.195343 0.762268 0.043182
0.210602 0.764587 0.046051
0.228333 0.766937 0.048218
0.248016 0.769012 0.050690
0.269043 0.771027 0.052734
0.291321 0.772766 0.054718
0.314667 0.774292 0.056671
0.338898 0.775635 0.058502
0.363831 0.776886 0.059845
0.389282 0.777985 0.061249
0.415253 0.778900 0.062988
0.441559 0.779877 0.064301
0.468292 0.780640 0.065674
0.495148 0.781433 0.067230
0.522247 0.782074 0.068878
