filter/trong.CUBE
#Created by: Adobe Photoshop Export Color Lookup Plugin
TITLE "IMG_9966.JPG"
#LUT size
LUT_3D_SIZE 5
#data domain
#LUT data points
DOMAIN_MIN 0.000000 0.000000 0.000000
DOMAIN_MAX 0.903226 0.903226 0.903226
0.056244 0.059723 0.053925
0.207794 0.053009 0.050232
0.412811 0.042450 0.045166
0.623505 0.030365 0.040161
0.836884 0.017609 0.034027
0.069153 0.212158 0.054077
0.206421 0.216217 0.059906
0.407990 0.196198 0.054230
0.612762 0.173889 0.046722
0.816406 0.150543 0.036682
0.098175 0.404327 0.051575
0.221924 0.412170 0.060547
0.410522 0.416473 0.067871
0.614075 0.401825 0.061951
0.817169 0.385895 0.052826
0.136261 0.595032 0.045593
0.244690 0.606232 0.058105
0.425293 0.612885 0.067413
0.620483 0.616486 0.076233
0.823730 0.607300 0.069427
0.179657 0.784668 0.037262
0.273346 0.798340 0.051819
0.444550 0.807495 0.063690
0.635315 0.812439 0.074066
0.833771 0.815369 0.083252
0.065155 0.056885 0.194763
0.204559 0.060913 0.200592
0.410034 0.051361 0.191711
0.622070 0.039307 0.188690
0.837524 0.026001 0.193665
0.076721 0.210297 0.196259
0.210144 0.215881 0.202759
0.410309 0.195892 0.190765
0.614532 0.173035 0.178497
0.817871 0.149475 0.169189
0.104095 0.402039 0.195526
0.223480 0.411621 0.204193
0.412079 0.416290 0.210388
0.615082 0.401245 0.198456
0.817780 0.385132 0.186615
0.139343 0.592041 0.193115
0.244507 0.604340 0.204285
0.424957 0.611389 0.212524
0.620331 0.615112 0.218109
0.823273 0.605835 0.206451
0.179779 0.780426 0.189911
0.271240 0.794586 0.202911
0.442230 0.804230 0.213531
0.633087 0.809479 0.220642
0.831757 0.812653 0.225494
0.089569 0.047699 0.376007
0.216614 0.057220 0.387299
0.410889 0.060669 0.396759
0.624542 0.049469 0.398224
0.841766 0.036438 0.406189
0.096893 0.203491 0.376160
0.218872 0.212677 0.387085
0.409363 0.215851 0.393158
0.614197 0.194763 0.385803
0.819092 0.172394 0.380280
0.119690 0.397400 0.377045
0.232666 0.409668 0.389648
0.417114 0.415680 0.396729
0.619049 0.401215 0.388458
0.820923 0.384857 0.379852
0.151001 0.588623 0.376556
0.252167 0.602600 0.390350
0.428833 0.611115 0.398499
0.624023 0.615204 0.403992
0.826019 0.605865 0.396088
0.188660 0.777405 0.375061
0.277618 0.792664 0.389923
0.444855 0.803467 0.399811
0.635406 0.809235 0.406799
0.833984 0.812592 0.411102
0.123077 0.034241 0.558289
0.237122 0.049286 0.575226
0.424774 0.056000 0.588745
0.631561 0.056458 0.603180
0.846619 0.046509 0.611786
0.124939 0.193390 0.554626
0.234528 0.207489 0.570679
0.417633 0.215210 0.580322
0.616150 0.215881 0.586700
0.822662 0.194092 0.585754
0.143097 0.389435 0.556274
0.246674 0.405121 0.572693
0.424133 0.413025 0.582733
0.620972 0.414764 0.587769
0.823669 0.400024 0.583832
0.170624 0.582306 0.557312
0.265228 0.599121 0.574310
0.436737 0.609833 0.585693
0.629486 0.614075 0.591400
0.830444 0.605835 0.587677
0.204376 0.772614 0.557465
0.289337 0.789581 0.574463
0.452209 0.802185 0.586975
0.640167 0.808868 0.593994
0.838348 0.812500 0.598755
0.163605 0.016846 0.742554
0.266022 0.036896 0.764404
0.445221 0.047180 0.781433
0.647125 0.051117 0.798004
0.850311 0.057281 0.806061
0.157379 0.181366 0.732178
0.255829 0.200043 0.752747
0.430817 0.211151 0.765900
0.625122 0.216644 0.775116
0.828583 0.214447 0.783386
0.171844 0.379272 0.733643
0.265900 0.398743 0.753937
0.435486 0.409332 0.766998
0.627533 0.415497 0.774872
0.828217 0.415161 0.780609
0.195465 0.573792 0.735840
0.283051 0.593292 0.755646
0.447327 0.606110 0.769653
0.635834 0.612457 0.777863
0.834930 0.613922 0.782928
0.225586 0.765625 0.737396
0.305511 0.784760 0.756622
0.462921 0.799713 0.772034
0.647705 0.807770 0.780914
0.843994 0.811707 0.786377
