filter/trong.CUBE
#Created by: Adobe Photoshop Export Color Lookup Plugin
TITLE "IMG_9966.JPG"
#LUT size
LUT_3D_SIZE 8
#data domain
#LUT data points
DOMAIN_MIN 0.000000 0.000000 0.000000
DOMAIN_MAX 0.903226 0.903226 0.903226
0.056244 0.059723 0.053925
0.124634 0.057220 0.052612
0.235931 0.051880 0.049011
0.353210 0.045624 0.046539
0.472168 0.039337 0.043549
0.592987 0.032227 0.041138
0.714630 0.024963 0.037170
0.836884 0.017609 0.034027
0.061218 0.130737 0.054626
0.124481 0.132477 0.056732
0.234467 0.121185 0.054016
0.350281 0.107483 0.050446
0.467743 0.092926 0.046722
0.585693 0.077881 0.042511
0.703339 0.062805 0.037292
0.821259 0.046692 0.030518
0.073242 0.239136 0.054474
0.132111 0.242401 0.057251
0.234955 0.244659 0.061035
0.349579 0.234375 0.058197
0.466217 0.222473 0.054321
0.583130 0.210358 0.049957
0.699890 0.197632 0.045105
0.815735 0.185120 0.038788
0.089325 0.349243 0.052734
0.143738 0.353577 0.057281
0.242798 0.356964 0.061401
0.351379 0.359070 0.065582
0.467224 0.350372 0.062622
0.583954 0.340485 0.058533
0.700348 0.330444 0.053711
0.815979 0.320129 0.048096
0.108643 0.458832 0.050323
0.158325 0.464142 0.055878
0.253052 0.468872 0.061249
0.359161 0.471649 0.065887
0.469910 0.473755 0.070526
0.586365 0.466553 0.066956
0.702850 0.458588 0.062683
0.818512 0.450623 0.057617
0.130615 0.567810 0.046753
0.175537 0.573914 0.053284
0.265259 0.579956 0.059937
0.368866 0.583435 0.065369
0.478058 0.586029 0.069977
0.590271 0.588013 0.074738
0.706635 0.582428 0.071228
0.822540 0.576508 0.066956
0.154755 0.676208 0.042206
0.194916 0.683044 0.049316
0.279388 0.690338 0.057678
0.379944 0.694855 0.063477
0.487335 0.697876 0.068726
0.598328 0.700256 0.074097
0.711639 0.701721 0.079285
0.827637 0.698029 0.075684
0.179657 0.784668 0.037262
0.215973 0.791779 0.044525
0.295563 0.800110 0.053833
0.392578 0.805634 0.060547
0.497925 0.809204 0.066345
0.607483 0.811829 0.072449
0.719666 0.814026 0.078339
0.833771 0.815369 0.083252
0.058990 0.059143 0.119049
0.122742 0.060760 0.121368
0.234589 0.055450 0.114441
0.351410 0.049835 0.107727
0.471191 0.043304 0.103363
0.592285 0.036224 0.101685
0.714172 0.028931 0.102448
0.836639 0.021423 0.105621
0.063934 0.130310 0.120148
0.126068 0.132446 0.122711
0.235657 0.121246 0.115326
0.351379 0.107269 0.107147
0.468750 0.092560 0.099701
0.586578 0.077393 0.094116
0.703979 0.062927 0.089478
0.821777 0.047852 0.087524
0.075134 0.238953 0.120270
0.133514 0.242188 0.123383
0.236115 0.244812 0.126678
0.350311 0.234344 0.119568
0.466888 0.222321 0.111603
0.583740 0.209991 0.104126
0.700195 0.197418 0.097473
0.816162 0.184662 0.091705
0.091003 0.348572 0.119751
0.144379 0.353119 0.123596
0.243317 0.356812 0.127930
0.351959 0.359009 0.131409
0.467651 0.350098 0.124084
0.584137 0.340210 0.116364
0.700562 0.329956 0.109222
0.816132 0.319763 0.102295
0.109924 0.457703 0.118195
0.158813 0.463135 0.122864
0.253021 0.468170 0.128418
0.359253 0.471069 0.132477
0.470032 0.473267 0.136017
0.586334 0.465881 0.128754
0.702637 0.458038 0.121307
0.818390 0.449951 0.114197
0.131256 0.566101 0.116089
0.174896 0.572571 0.121704
0.264679 0.578735 0.128479
0.368011 0.582520 0.133179
0.477356 0.585144 0.136810
0.589752 0.587006 0.140411
0.706085 0.581329 0.133331
0.821960 0.575500 0.126282
0.154022 0.674225 0.113678
0.193634 0.681061 0.119812
0.278107 0.688507 0.127747
0.378632 0.693146 0.133118
0.486053 0.696289 0.137451
0.597076 0.698669 0.141724
0.710480 0.700256 0.144806
0.826508 0.696594 0.137939
0.178436 0.781860 0.110779
0.213989 0.789062 0.117188
0.293518 0.797607 0.126099
0.390564 0.803101 0.132477
0.495880 0.806854 0.137573
0.605499 0.809692 0.141998
0.717773 0.811951 0.146271
0.832001 0.813446 0.148926
0.067810 0.055847 0.220367
0.128418 0.058960 0.224182
0.232788 0.061188 0.227844
0.350403 0.055664 0.223297
0.470032 0.049652 0.219727
0.591614 0.042664 0.218628
0.714661 0.035156 0.220215
0.837891 0.027527 0.223785
0.071991 0.127655 0.221191
0.130707 0.130737 0.225128
0.234528 0.132477 0.228333
0.349945 0.119751 0.221802
0.467163 0.105988 0.215668
0.585358 0.091431 0.210876
0.703644 0.076874 0.207367
0.822205 0.061707 0.205688
0.081879 0.237152 0.222168
0.138275 0.241302 0.226654
0.239197 0.244263 0.230286
0.352600 0.234253 0.224060
0.469025 0.222015 0.216858
0.585541 0.209503 0.210114
0.701843 0.196747 0.203918
0.817413 0.183929 0.198425
0.096741 0.347046 0.221924
0.148499 0.352325 0.227112
0.245667 0.356659 0.231049
0.354065 0.359222 0.234467
0.469452 0.350037 0.228455
0.585663 0.340057 0.221313
0.701782 0.329803 0.214508
0.817291 0.319275 0.208221
0.114807 0.456238 0.221008
0.162109 0.462341 0.226807
0.254517 0.467987 0.231781
0.360718 0.471191 0.235718
0.471497 0.473480 0.239044
0.587585 0.465851 0.232605
0.703705 0.457794 0.225739
0.819244 0.449677 0.219147
0.134766 0.564819 0.219910
0.178101 0.571411 0.226166
0.265625 0.578278 0.232208
0.369080 0.582245 0.236755
0.478363 0.584930 0.240356
0.590668 0.586884 0.243378
0.706787 0.581055 0.236816
0.822632 0.575134 0.230286
0.156830 0.672668 0.218262
0.196014 0.679718 0.224945
0.278717 0.687561 0.231964
0.378967 0.692444 0.237396
0.486511 0.695679 0.241455
0.597443 0.698212 0.244995
0.710938 0.699799 0.247620
0.826843 0.696014 0.241028
0.180420 0.780090 0.216431
0.215607 0.787445 0.223511
0.293457 0.796173 0.231323
0.390533 0.801941 0.237640
0.495758 0.805847 0.242249
0.605408 0.808777 0.246155
0.717590 0.811096 0.249695
0.831940 0.812592 0.251648
0.081085 0.050964 0.323975
0.137634 0.055817 0.329559
0.238342 0.059692 0.334778
0.350159 0.061157 0.339600
0.470093 0.055634 0.337524
0.592590 0.048584 0.338074
0.716248 0.041199 0.340851
0.839935 0.033691 0.345306
0.084106 0.123566 0.324005
0.138214 0.128265 0.329468
0.239044 0.131866 0.334503
0.349030 0.132904 0.337616
0.466461 0.119781 0.333099
0.585419 0.105408 0.329987
0.704102 0.090973 0.327362
0.823395 0.075775 0.326630
0.092987 0.233490 0.325043
0.145630 0.238831 0.330750
0.243195 0.242645 0.335938
0.352448 0.243958 0.338715
0.468414 0.232819 0.333069
0.585144 0.220917 0.327972
0.701904 0.208618 0.323364
0.818237 0.196136 0.319458
0.106232 0.344208 0.325439
0.155670 0.350433 0.331787
0.250183 0.355896 0.337585
0.357086 0.358673 0.341064
0.472076 0.349884 0.335907
0.588043 0.339935 0.330231
0.703888 0.329590 0.324585
0.819214 0.318878 0.319336
0.122986 0.453827 0.325104
0.168671 0.460632 0.331848
0.258881 0.467194 0.338287
0.363312 0.470978 0.342133
0.474213 0.473480 0.345428
0.589813 0.465729 0.340393
0.705627 0.457825 0.334564
0.820984 0.449615 0.329041
0.142120 0.562592 0.324463
0.183502 0.570007 0.331665
0.269684 0.577423 0.338806
0.371429 0.581909 0.342957
0.480438 0.584991 0.346619
0.592896 0.586884 0.349518
0.708557 0.581055 0.344421
0.824036 0.575165 0.338928
0.162811 0.670837 0.323608
0.200989 0.678284 0.330872
0.282288 0.686737 0.338898
0.380920 0.692047 0.343567
0.488007 0.695679 0.347809
0.599060 0.698242 0.351318
0.712524 0.699921 0.353638
0.828125 0.695984 0.348358
0.185181 0.778503 0.322479
0.219940 0.786011 0.329803
0.296722 0.795227 0.338531
0.391998 0.801361 0.343994
0.496918 0.805573 0.348755
0.606628 0.808563 0.352509
0.718903 0.810974 0.355927
0.833069 0.812531 0.357788
0.097290 0.044800 0.427734
0.150055 0.051208 0.435211
0.247070 0.056732 0.442139
0.356476 0.059509 0.448456
0.472778 0.059875 0.454834
0.595459 0.053375 0.456848
0.719025 0.046509 0.460419
0.843445 0.039215 0.466217
0.099243 0.118103 0.426666
0.149872 0.124115 0.433929
0.246246 0.129700 0.440521
0.353546 0.133057 0.445007
0.467255 0.132751 0.448792
0.586090 0.119080 0.446899
0.705322 0.104767 0.445740
0.825409 0.089508 0.446472
0.107086 0.228607 0.427460
0.155487 0.235626 0.434814
0.249054 0.240753 0.441467
0.356110 0.244080 0.445770
0.468353 0.244324 0.448303
0.585358 0.232849 0.444641
0.702515 0.220947 0.441437
0.819458 0.208588 0.438904
0.118500 0.340088 0.428253
0.164917 0.347412 0.435822
0.256042 0.353760 0.442932
0.360687 0.357178 0.447479
0.472626 0.357666 0.449768
0.588531 0.348541 0.445496
0.704590 0.338623 0.441528
0.820282 0.328491 0.437897
0.133545 0.450531 0.428650
0.177185 0.458160 0.436432
0.264984 0.465790 0.444275
0.367828 0.470245 0.449280
0.477325 0.472565 0.452332
0.592651 0.465485 0.448517
0.708221 0.457764 0.444336
0.823273 0.449585 0.440125
0.151398 0.559753 0.428497
0.191406 0.567780 0.436432
0.275543 0.576050 0.444824
0.375610 0.581268 0.450012
0.483368 0.584686 0.453644
0.595795 0.586700 0.456512
0.710876 0.581085 0.453033
0.826263 0.575195 0.448761
0.171204 0.668304 0.428101
0.208069 0.676270 0.435974
0.287689 0.685455 0.445068
0.384949 0.691376 0.450745
0.490662 0.695374 0.454590
0.601532 0.698242 0.458252
0.714935 0.699890 0.460663
0.830170 0.695984 0.456970
0.192566 0.776276 0.427460
0.226379 0.784180 0.435272
0.301636 0.794067 0.444946
0.395660 0.800720 0.451202
0.499298 0.805237 0.455444
0.608673 0.808472 0.459381
0.720825 0.811096 0.462799
0.835114 0.812561 0.464722
0.117676 0.036530 0.531982
0.165680 0.044983 0.541229
0.258972 0.051910 0.550415
0.366058 0.055725 0.557617
0.480042 0.057800 0.565277
0.599640 0.057068 0.573395
0.723175 0.050934 0.578156
0.846222 0.044922 0.583282
0.116638 0.111664 0.529114
0.162994 0.119415 0.537872
0.254974 0.126953 0.546112
0.360779 0.130798 0.551941
0.472412 0.133331 0.557251
0.588013 0.131897 0.561432
0.707733 0.117889 0.562042
0.828217 0.102936 0.564117
0.122589 0.223145 0.529388
0.168060 0.231323 0.538177
0.257355 0.237946 0.546417
0.362061 0.242340 0.551727
0.472290 0.245270 0.555969
0.586700 0.244202 0.558746
0.704071 0.232666 0.557037
0.821381 0.220581 0.555878
0.133148 0.334991 0.530334
0.176544 0.343536 0.539124
0.263916 0.351227 0.547791
0.366028 0.355255 0.553284
0.475800 0.358398 0.557312
0.589417 0.357971 0.559540
0.705688 0.348633 0.556854
0.821930 0.338684 0.554718
0.147003 0.445923 0.531097
0.187714 0.454803 0.539978
0.272217 0.463440 0.549133
0.372864 0.468353 0.554932
0.480835 0.471405 0.559082
0.594116 0.471466 0.561127
0.709564 0.464355 0.558197
0.824860 0.456604 0.555634
0.162933 0.556091 0.531677
0.201447 0.564697 0.540344
0.282623 0.574249 0.550140
0.381012 0.580170 0.556427
0.487610 0.584137 0.560883
0.598969 0.585785 0.563568
0.713959 0.580750 0.561157
0.828827 0.575195 0.558472
0.181580 0.665009 0.531738
0.217224 0.673584 0.540253
0.294556 0.683685 0.550476
0.390106 0.690338 0.557129
0.494812 0.694794 0.561768
0.604645 0.697876 0.565308
0.717926 0.699615 0.567871
0.832672 0.696045 0.565796
0.201782 0.773407 0.531647
0.234436 0.781799 0.539948
0.308105 0.792419 0.550537
0.400604 0.799713 0.557739
0.503235 0.804657 0.562622
0.611572 0.808228 0.566376
0.723450 0.811005 0.569916
0.837616 0.812592 0.571991
0.139557 0.027313 0.636871
0.183929 0.037323 0.647644
0.272278 0.046509 0.658295
0.376862 0.051331 0.666718
0.489380 0.054077 0.674988
0.607635 0.054962 0.684967
0.729828 0.053375 0.694794
0.848022 0.051208 0.696106
0.135559 0.104370 0.631317
0.178925 0.113434 0.641602
0.266663 0.122681 0.651886
0.369446 0.127899 0.658813
0.479553 0.131012 0.664703
0.593811 0.133118 0.670837
0.711548 0.130096 0.676117
0.832550 0.115601 0.679901
0.140137 0.216705 0.630890
0.181885 0.226471 0.641022
0.267548 0.234558 0.650940
0.369293 0.240204 0.657379
0.478149 0.243622 0.662262
0.590637 0.246124 0.666718
0.706238 0.243988 0.669891
0.824097 0.232147 0.670288
0.149231 0.329376 0.631897
0.189758 0.339050 0.641907
0.273163 0.348236 0.652069
0.372803 0.353058 0.658508
0.480957 0.356812 0.663208
0.592682 0.359589 0.667206
0.707672 0.358124 0.669678
0.824188 0.348633 0.668884
0.161713 0.440857 0.632935
0.200165 0.450592 0.642822
0.281158 0.460510 0.653381
0.379211 0.466248 0.660095
0.485565 0.469696 0.664886
0.596893 0.472656 0.668793
0.711426 0.471802 0.670959
0.826965 0.464569 0.669617
0.176910 0.551300 0.633820
0.212982 0.560913 0.643494
0.291138 0.571472 0.654388
0.387238 0.578064 0.661621
0.492249 0.582275 0.666656
0.602203 0.585205 0.670593
0.716187 0.585114 0.672577
0.831177 0.579987 0.671173
0.193970 0.660950 0.634430
0.227966 0.670166 0.643738
0.302734 0.681458 0.655182
0.396423 0.688843 0.662842
0.499847 0.693848 0.668304
0.608856 0.697327 0.672424
0.721252 0.698792 0.674957
0.835846 0.695770 0.673981
0.212830 0.769897 0.634857
0.244598 0.778656 0.643707
0.315887 0.790283 0.655304
0.406708 0.798340 0.663483
0.508118 0.803741 0.669067
0.615631 0.807678 0.673370
0.726807 0.810638 0.676971
0.840637 0.812347 0.679352
0.163605 0.016846 0.742554
0.205078 0.028107 0.754608
0.288971 0.039185 0.767120
0.391083 0.044952 0.777283
0.501862 0.048401 0.786407
0.618134 0.050293 0.796112
0.733368 0.054810 0.801819
0.850311 0.057281 0.806061
0.156250 0.096222 0.733826
0.196381 0.106689 0.745361
0.279846 0.117737 0.757446
0.379944 0.124023 0.765717
0.488159 0.127991 0.772400
0.601410 0.130524 0.779083
0.717682 0.132324 0.785980
0.837952 0.127167 0.793335
0.158691 0.209869 0.732208
0.198212 0.220520 0.743469
0.279144 0.230530 0.755127
0.378204 0.237274 0.762726
0.485046 0.241608 0.768372
0.596466 0.244537 0.773346
0.710693 0.246735 0.778168
0.827576 0.243347 0.782104
0.166687 0.323029 0.732971
0.204926 0.333649 0.743988
0.284271 0.344513 0.755768
0.380981 0.350403 0.763367
0.487335 0.354950 0.768860
0.597870 0.358154 0.773285
0.711212 0.360657 0.777405
0.827148 0.358063 0.780396
0.177704 0.435211 0.734314
0.214478 0.445648 0.744965
0.291779 0.457001 0.757019
0.386932 0.463745 0.764740
0.491516 0.467743 0.770294
0.601562 0.471161 0.774628
0.714417 0.473846 0.778564
0.829803 0.472137 0.781036
0.191620 0.546204 0.735535
0.226471 0.556274 0.745789
0.301208 0.568176 0.758057
0.394592 0.575653 0.766235
0.497864 0.580353 0.771942
0.606598 0.583618 0.776428
0.718811 0.586517 0.780212
0.833771 0.585632 0.782562
0.207672 0.656311 0.736603
0.240173 0.666138 0.746490
0.312347 0.678314 0.758881
0.403748 0.686432 0.767517
0.505432 0.691895 0.773560
0.613068 0.695679 0.778229
0.724426 0.698608 0.782013
0.838776 0.698639 0.784241
0.225586 0.765625 0.737396
0.256073 0.774963 0.746765
0.325043 0.787567 0.759460
0.413940 0.796478 0.768646
0.513977 0.802490 0.775024
0.620483 0.806824 0.779846
0.730835 0.810181 0.783844
0.843994 0.811707 0.786377
