filter/WARM.CUBE
#Created by: Adobe Photoshop Export Color Lookup Plugin
TITLE "25338f488af2c45912c15ebab325e363 2.jpg"
#LUT size
LUT_3D_SIZE 8
#data domain
#LUT data points
DOMAIN_MIN 0.000000 0.000000 0.000000
DOMAIN_MAX 0.903226 0.903226 0.903226
0.000000 0.000000 0.000000
0.115570 0.048889 0.037048
0.214935 0.103699 0.084198
0.309570 0.161499 0.136566
0.401764 0.221710 0.193024
0.487885 0.280853 0.249878
0.562897 0.334442 0.302399
0.622681 0.378693 0.346344
0.084686 0.073364 0.037323
0.127045 0.080627 0.043274
0.228302 0.138916 0.093994
0.327698 0.201904 0.152771
0.425018 0.266876 0.215607
0.516632 0.330902 0.279938
0.597931 0.389740 0.341705
0.664062 0.438904 0.396912
0.158447 0.151642 0.082092
0.194092 0.159973 0.089233
0.236420 0.171509 0.100128
0.332428 0.232971 0.156494
0.426025 0.295959 0.216248
0.513214 0.357269 0.276215
0.588928 0.412262 0.331512
0.648102 0.456360 0.377167
0.226807 0.230927 0.129303
0.262604 0.245209 0.141724
0.297668 0.253174 0.149841
0.339661 0.266205 0.162018
0.431702 0.328857 0.221039
0.516998 0.389313 0.279633
0.590607 0.443115 0.333038
0.647858 0.486053 0.376648
0.293579 0.312653 0.179932
0.328827 0.331726 0.196167
0.363525 0.342194 0.206696
0.395477 0.347412 0.211761
0.438873 0.363281 0.227020
0.522552 0.423096 0.284668
0.594635 0.476105 0.336975
0.650269 0.518158 0.379242
0.356781 0.392822 0.230896
0.390381 0.415009 0.249146
0.425140 0.428162 0.262665
0.456757 0.434662 0.269073
0.487518 0.439056 0.273560
0.529083 0.456268 0.290497
0.599548 0.508514 0.341827
0.653717 0.549622 0.382965
0.414032 0.467224 0.279053
0.444611 0.489624 0.297028
0.479431 0.505127 0.313538
0.510468 0.512512 0.321075
0.540649 0.517456 0.326233
0.568573 0.521271 0.330383
0.605103 0.537994 0.347168
0.657654 0.578125 0.387177
0.462921 0.531464 0.321198
0.489227 0.550995 0.336517
0.523407 0.567474 0.355011
0.553802 0.575348 0.363495
0.583313 0.580597 0.369293
0.610443 0.584503 0.373657
0.633881 0.587769 0.377472
0.660919 0.600891 0.390961
0.073303 0.041656 0.048553
0.119720 0.051086 0.057861
0.217987 0.105804 0.107025
0.312500 0.163879 0.161072
0.404846 0.224518 0.218811
0.490997 0.284027 0.276611
0.566101 0.338074 0.329681
0.625885 0.382690 0.373749
0.099640 0.081512 0.063354
0.191681 0.132874 0.109009
0.287140 0.191650 0.163788
0.381866 0.253662 0.223541
0.473541 0.315613 0.285370
0.558807 0.374817 0.346405
0.631531 0.425934 0.401276
0.685089 0.462158 0.444153
0.180603 0.168854 0.117676
0.252289 0.210724 0.156067
0.292999 0.222778 0.167450
0.385162 0.283844 0.225555
0.476746 0.347229 0.287628
0.562042 0.408447 0.348907
0.635956 0.463043 0.404724
0.693695 0.506775 0.450623
0.262634 0.262146 0.177917
0.316345 0.294952 0.208679
0.348846 0.301819 0.215240
0.390625 0.315765 0.228729
0.480408 0.378510 0.289520
0.563904 0.438782 0.349304
0.635895 0.492279 0.403290
0.691467 0.534485 0.446594
0.340698 0.357574 0.240265
0.378021 0.379395 0.261047
0.410553 0.388794 0.269989
0.441925 0.394073 0.275208
0.484680 0.410217 0.290955
0.566620 0.469788 0.349609
0.636902 0.522278 0.402130
0.690735 0.563324 0.443787
0.396881 0.433777 0.284546
0.434143 0.458832 0.308929
0.466827 0.470734 0.320679
0.497803 0.477051 0.326843
0.527954 0.481354 0.331177
0.568756 0.498444 0.348145
0.637451 0.549988 0.399414
0.689636 0.589935 0.439667
0.444672 0.500641 0.320831
0.481171 0.526917 0.347351
0.513397 0.540314 0.360962
0.544067 0.547546 0.368408
0.573517 0.552185 0.373047
0.600433 0.555511 0.376434
0.635834 0.571655 0.392548
0.684692 0.609039 0.429810
0.479401 0.550781 0.342010
0.513855 0.575806 0.368530
0.545258 0.589508 0.383179
0.575195 0.597076 0.391388
0.603943 0.601868 0.396545
0.630127 0.605133 0.399994
0.652069 0.607422 0.402252
0.673218 0.616119 0.410980
0.127411 0.077515 0.095673
0.175568 0.093903 0.117798
0.221680 0.108032 0.131470
0.315460 0.165955 0.186554
0.407410 0.226624 0.245331
0.493286 0.286163 0.303894
0.568054 0.340149 0.357666
0.627502 0.384613 0.402130
0.170868 0.133789 0.132385
0.246124 0.178345 0.174530
0.293152 0.195923 0.191772
0.385193 0.255951 0.250732
0.476257 0.317627 0.313202
0.561005 0.376495 0.374756
0.633240 0.427216 0.430054
0.684967 0.461975 0.472198
0.190430 0.172729 0.144287
0.271698 0.226593 0.195038
0.353455 0.279327 0.245911
0.443237 0.341125 0.306885
0.532806 0.404968 0.371216
0.616882 0.466827 0.434784
0.688202 0.520111 0.490601
0.741852 0.560394 0.533966
0.268860 0.264862 0.205261
0.342682 0.318726 0.256897
0.406586 0.357910 0.295227
0.449188 0.374054 0.311371
0.537231 0.437378 0.374695
0.619446 0.498230 0.436646
0.690308 0.551971 0.492157
0.745361 0.594635 0.537109
0.346619 0.360901 0.270142
0.414520 0.414520 0.322479
0.468597 0.447235 0.354919
0.499573 0.453094 0.360840
0.542847 0.470856 0.378784
0.623596 0.531036 0.439697
0.692993 0.583984 0.494110
0.746338 0.625519 0.537354
0.421570 0.456848 0.336060
0.483704 0.508942 0.387909
0.526306 0.532440 0.411621
0.557129 0.539490 0.418884
0.587036 0.544220 0.423889
0.628143 0.562622 0.442719
0.696045 0.614685 0.496002
0.747864 0.655212 0.538025
0.490417 0.546936 0.398682
0.544189 0.592834 0.445709
0.576324 0.607208 0.460846
0.606781 0.615143 0.469299
0.636200 0.620392 0.474976
0.663269 0.624359 0.479401
0.699097 0.641754 0.497406
0.748596 0.680573 0.537506
0.550293 0.625397 0.453766
0.584564 0.651489 0.482239
0.615784 0.666107 0.498474
0.645630 0.674408 0.507843
0.674377 0.679840 0.514008
0.700684 0.683807 0.518585
0.723175 0.686981 0.522308
0.746643 0.698120 0.534180
0.168549 0.105713 0.134247
0.237549 0.144623 0.189056
0.269073 0.148376 0.193604
0.319214 0.168365 0.213257
0.410553 0.228943 0.272858
0.495941 0.288422 0.332062
0.570374 0.342407 0.386353
0.629486 0.386841 0.431183
0.247681 0.193298 0.213257
0.305084 0.229187 0.248627
0.338379 0.236389 0.256317
0.389374 0.258392 0.279114
0.479889 0.319855 0.342285
0.563904 0.378448 0.404236
0.635559 0.428619 0.459839
0.684479 0.461151 0.500519
0.256927 0.225708 0.218811
0.330566 0.279022 0.270966
0.400604 0.323914 0.315552
0.451385 0.348114 0.340210
0.538940 0.410370 0.403748
0.620300 0.469727 0.465454
0.690094 0.521667 0.520447
0.743225 0.561554 0.563812
0.278931 0.269012 0.234375
0.348877 0.321838 0.285828
0.430237 0.380066 0.343628
0.507538 0.433228 0.397278
0.593689 0.496857 0.462372
0.674347 0.557861 0.525757
0.744080 0.611786 0.582642
0.798157 0.654449 0.628387
0.354370 0.364349 0.299774
0.419830 0.417267 0.352081
0.497375 0.475647 0.410706
0.555023 0.510712 0.446411
0.599609 0.531006 0.467377
0.678833 0.591309 0.529755
0.747040 0.644379 0.585297
0.799469 0.685913 0.629425
0.427765 0.459869 0.366364
0.488556 0.511566 0.418457
0.562195 0.569244 0.477234
0.612366 0.598267 0.507202
0.642090 0.603577 0.512939
0.683929 0.623749 0.534027
0.750641 0.675903 0.588440
0.801666 0.716522 0.631317
0.495239 0.549469 0.429657
0.551666 0.598755 0.480682
0.621002 0.654633 0.538635
0.662292 0.675476 0.560608
0.691559 0.681274 0.567078
0.718353 0.685547 0.571930
0.754547 0.704071 0.591553
0.802704 0.742523 0.632080
0.554840 0.628235 0.486206
0.606171 0.673401 0.534698
0.671234 0.726471 0.590973
0.702026 0.736633 0.602570
0.730530 0.742493 0.609375
0.756653 0.746796 0.614502
0.778992 0.750275 0.618744
0.802277 0.761841 0.631317
0.210449 0.136658 0.177673
0.290649 0.189972 0.254608
0.328583 0.201263 0.270752
0.359955 0.205383 0.275269
0.414276 0.231445 0.301422
0.498962 0.290771 0.361145
0.572906 0.344666 0.415802
0.631195 0.388489 0.460480
0.323151 0.255402 0.300812
0.362976 0.279633 0.325592
0.396729 0.289948 0.336700
0.429413 0.295624 0.343597
0.484344 0.322388 0.372620
0.567688 0.380432 0.435028
0.638275 0.429901 0.490601
0.683441 0.459473 0.528809
0.329437 0.286865 0.304901
0.397156 0.339813 0.358246
0.457184 0.378265 0.397491
0.488770 0.384460 0.404358
0.542725 0.412842 0.434143
0.623322 0.471832 0.496033
0.692383 0.523346 0.551086
0.744690 0.562653 0.594177
0.339874 0.321167 0.311646
0.405396 0.373688 0.364227
0.483398 0.432037 0.423492
0.549377 0.475555 0.468323
0.603912 0.506500 0.500641
0.682495 0.565887 0.562927
0.749939 0.617737 0.618073
0.801392 0.657776 0.661407
0.363922 0.368561 0.330627
0.427216 0.420929 0.383118
0.502655 0.478607 0.441681
0.583893 0.539948 0.504730
0.656494 0.592072 0.559021
0.734131 0.652405 0.622437
0.800995 0.705353 0.678772
0.852356 0.746765 0.723389
0.435974 0.463867 0.397888
0.495117 0.515076 0.450073
0.567139 0.572205 0.508911
0.645691 0.633301 0.572357
0.696198 0.662659 0.603271
0.739288 0.685242 0.627228
0.804749 0.737274 0.682434
0.854736 0.777771 0.725861
0.502472 0.553345 0.461853
0.557648 0.602203 0.513000
0.625641 0.657532 0.570953
0.701447 0.717743 0.634216
0.745544 0.741211 0.659332
0.772156 0.745941 0.664764
0.808960 0.765961 0.686340
0.855164 0.803558 0.726562
0.561127 0.631958 0.518951
0.611694 0.676880 0.567688
0.675629 0.729401 0.623962
0.748199 0.787659 0.686188
0.784698 0.803436 0.703613
0.810577 0.808136 0.709259
0.832703 0.811890 0.713867
0.855377 0.823639 0.726929
0.252594 0.169312 0.224518
0.338745 0.231964 0.316620
0.386017 0.253754 0.349182
0.416351 0.258301 0.354645
0.447540 0.263000 0.359467
0.502319 0.293121 0.390045
0.575562 0.346832 0.444885
0.632935 0.389923 0.489288
0.380005 0.302063 0.375488
0.418671 0.328461 0.402863
0.452576 0.341583 0.416962
0.485199 0.348785 0.425598
0.517334 0.353577 0.432343
0.571930 0.382538 0.465332
0.641388 0.431000 0.520569
0.681763 0.456726 0.555176
0.400665 0.349182 0.394806
0.463074 0.401093 0.448090
0.511322 0.430634 0.478821
0.542877 0.438324 0.487274
0.573608 0.443542 0.493378
0.626923 0.474091 0.526276
0.694946 0.524994 0.580994
0.746277 0.563599 0.623596
0.409149 0.382965 0.400757
0.470276 0.434753 0.453644
0.544159 0.492432 0.513275
0.602386 0.530060 0.552612
0.632507 0.535736 0.558929
0.685791 0.568085 0.593414
0.752350 0.619446 0.648285
0.802917 0.658905 0.691193
0.419739 0.418427 0.407959
0.479584 0.470184 0.460571
0.551819 0.527466 0.519531
0.630951 0.588867 0.583527
0.691742 0.629517 0.626404
0.745789 0.664307 0.663483
0.810669 0.715607 0.718414
0.859955 0.755066 0.761169
0.445557 0.468414 0.430023
0.503265 0.519257 0.482147
0.573303 0.575775 0.540619
0.650543 0.636353 0.603882
0.729401 0.698364 0.669312
0.792511 0.744873 0.718872
0.856445 0.796478 0.774261
0.903870 0.835480 0.816528
0.511230 0.557983 0.494751
0.565063 0.606445 0.545624
0.631561 0.661224 0.603271
0.706116 0.720856 0.666321
0.782501 0.781982 0.731354
0.822937 0.803467 0.754608
0.860657 0.825409 0.778442
0.904419 0.861511 0.817596
0.569092 0.636658 0.552399
0.618744 0.681305 0.600983
0.681213 0.733093 0.656799
0.752686 0.790833 0.718719
0.826416 0.850372 0.782776
0.861267 0.866241 0.800354
0.882965 0.870148 0.805145
0.904907 0.882019 0.818451
0.293732 0.202301 0.272675
0.382324 0.270477 0.374481
0.436005 0.300659 0.420288
0.467529 0.307190 0.429535
0.497894 0.312195 0.434814
0.527100 0.317261 0.439697
0.578308 0.348816 0.471863
0.634766 0.391357 0.515961
0.431488 0.344177 0.445923
0.469299 0.372559 0.475220
0.503052 0.388000 0.491547
0.535339 0.396423 0.501404
0.566956 0.401733 0.508820
0.596619 0.405304 0.515564
0.645111 0.431580 0.548157
0.679260 0.452667 0.577393
0.467865 0.409332 0.483246
0.525269 0.459564 0.535126
0.560211 0.477783 0.554077
0.591553 0.486908 0.563873
0.621826 0.492828 0.570648
0.649933 0.497131 0.576080
0.697784 0.526581 0.608398
0.747040 0.563782 0.649536
0.474731 0.442596 0.488342
0.531219 0.492737 0.539856
0.600800 0.549164 0.598633
0.650055 0.579071 0.630127
0.679810 0.585510 0.637115
0.707184 0.590149 0.642456
0.755035 0.621185 0.676056
0.804352 0.659790 0.718079
0.483978 0.477814 0.495117
0.539581 0.528015 0.546387
0.607819 0.584076 0.604584
0.684021 0.644653 0.668335
0.738312 0.679657 0.705566
0.765228 0.684753 0.711182
0.813171 0.717316 0.746277
0.860321 0.755219 0.787476
0.494843 0.513641 0.502808
0.549316 0.563293 0.553741
0.616333 0.618805 0.611511
0.691345 0.679016 0.674835
0.768433 0.740723 0.740448
0.820038 0.775116 0.777313
0.868530 0.809570 0.814575
0.912537 0.845673 0.853821
0.521118 0.563141 0.526703
0.573822 0.611298 0.576996
0.638672 0.665466 0.633911
0.711731 0.724487 0.696381
0.786865 0.784943 0.760834
0.857330 0.842133 0.822327
0.907013 0.879059 0.862396
0.947968 0.913269 0.899719
0.578278 0.642059 0.585022
0.627136 0.686462 0.633026
0.688110 0.737640 0.688019
0.758209 0.794617 0.749237
0.830658 0.853455 0.812653
0.898712 0.909058 0.872925
0.927551 0.922058 0.887451
0.948517 0.933899 0.900757
0.333923 0.235443 0.321838
0.421295 0.305084 0.427032
0.475861 0.338287 0.478027
0.511444 0.349396 0.495026
0.540497 0.354034 0.500122
0.569000 0.359344 0.505249
0.594696 0.364929 0.510254
0.636749 0.392792 0.538940
0.476532 0.380280 0.508728
0.512726 0.409027 0.537750
0.545654 0.425690 0.554932
0.577271 0.434937 0.565338
0.607819 0.440369 0.572571
0.636139 0.443298 0.578461
0.660339 0.443817 0.583862
0.679016 0.452301 0.595673
0.528931 0.464691 0.565582
0.569122 0.499084 0.600372
0.601501 0.516693 0.618164
0.632324 0.526947 0.628784
0.661926 0.533356 0.635773
0.689240 0.537872 0.641144
0.712616 0.541107 0.645599
0.746155 0.562317 0.669525
0.534027 0.497162 0.569397
0.586182 0.545044 0.618195
0.651276 0.599365 0.674774
0.689972 0.619507 0.695648
0.719208 0.626526 0.703033
0.745911 0.631500 0.708435
0.768890 0.635284 0.712860
0.803864 0.658997 0.738861
0.542206 0.532043 0.575684
0.593567 0.579926 0.624176
0.657562 0.634003 0.680206
0.730530 0.693329 0.742737
0.776978 0.720978 0.772064
0.803314 0.726379 0.777771
0.825836 0.730469 0.782288
0.859985 0.754700 0.808624
0.551880 0.567719 0.582977
0.602539 0.615143 0.631256
0.665436 0.668701 0.686829
0.737213 0.727417 0.748688
0.811707 0.787933 0.813293
0.857666 0.817017 0.844482
0.879608 0.821259 0.849121
0.912262 0.845245 0.875214
0.563019 0.602081 0.591156
0.612701 0.648499 0.639069
0.674347 0.701050 0.694061
0.744995 0.759094 0.755493
0.818024 0.818634 0.819122
0.886841 0.875122 0.880035
0.926666 0.901215 0.908386
0.957520 0.924591 0.933929
0.588654 0.648071 0.615356
0.636597 0.692261 0.662262
0.696136 0.742767 0.716095
0.764648 0.799011 0.776276
0.835602 0.856903 0.838654
0.902344 0.911713 0.897980
0.959259 0.958893 0.949402
0.983856 0.976349 0.968658
