filter/WARM.CUBE
#Created by: Adobe Photoshop Export Color Lookup Plugin
TITLE "25338f488af2c45912c15ebab325e363 2.jpg"
#LUT size
LUT_3D_SIZE 32
#data domain
DOMAIN_MIN 0.0 0.0 0.0
DOMAIN_MAX 1.0 1.0 1.0
#LUT data points
0.000000 0.000000 0.000000
0.033173 0.010773 0.007111
0.061920 0.022949 0.016235
0.088959 0.035645 0.026215
0.115570 0.048889 0.037048
0.141052 0.062225 0.048187
0.165924 0.075775 0.059784
0.190613 0.089661 0.071838
0.214935 0.103699 0.084198
0.238861 0.117859 0.096832
0.262543 0.132233 0.109772
0.286163 0.146790 0.123016
0.309570 0.161499 0.136566
0.332794 0.176331 0.150330
0.355957 0.191406 0.164398
0.378998 0.206543 0.178650
0.401764 0.221710 0.193024
0.424103 0.236816 0.207428
0.445892 0.251678 0.221710
0.467224 0.266418 0.235901
0.487885 0.280853 0.249878
0.507812 0.294922 0.263580
0.527039 0.308594 0.276978
0.545410 0.321808 0.289948
0.562897 0.334442 0.302399
0.579407 0.346527 0.314362
0.595001 0.358032 0.325745
0.609406 0.368713 0.336395
0.622681 0.378693 0.346344
0.634735 0.387756 0.355408
0.642609 0.393829 0.361481
0.642914 0.394379 0.362030
0.024200 0.016418 0.007263
0.038025 0.018463 0.008636
0.066315 0.031036 0.018005
0.093811 0.044250 0.028442
0.120667 0.057953 0.039734
0.146790 0.071991 0.051575
0.172333 0.086151 0.063812
0.197968 0.100830 0.076843
0.223938 0.116180 0.090820
0.249939 0.131927 0.105469
0.275757 0.148010 0.120667
0.302643 0.165161 0.137421
0.328552 0.181976 0.153809
0.355072 0.199188 0.170776
0.380798 0.216156 0.187622
0.404175 0.231873 0.202698
0.426544 0.247040 0.217224
0.448456 0.262085 0.231720
0.469971 0.276978 0.246155
0.490753 0.291534 0.260284
0.510925 0.305756 0.274200
0.530334 0.319580 0.287750
0.548981 0.332947 0.300934
0.566681 0.345795 0.313629
0.583496 0.358063 0.325775
0.599335 0.369659 0.337341
0.614044 0.380585 0.348236
0.627594 0.390625 0.358276
0.640015 0.399902 0.367554
0.651123 0.408234 0.375946
0.652283 0.409271 0.377014
0.652496 0.409637 0.377380
0.045258 0.034760 0.016510
0.056549 0.035583 0.017090
0.069275 0.038483 0.019257
0.096497 0.051819 0.029785
0.123169 0.065643 0.041138
0.149109 0.079681 0.052979
0.175171 0.094299 0.065704
0.200684 0.109039 0.078796
0.225830 0.123993 0.092285
0.251740 0.139801 0.106964
0.278198 0.156403 0.122772
0.304138 0.172974 0.138763
0.330017 0.189667 0.154968
0.355133 0.206055 0.170837
0.381012 0.223236 0.187866
0.407104 0.240723 0.205414
0.432556 0.258057 0.222961
0.458038 0.275543 0.240936
0.482452 0.292511 0.258453
0.506317 0.309357 0.275970
0.529602 0.325867 0.293396
0.550110 0.340576 0.308472
0.568237 0.353729 0.321472
0.585358 0.366211 0.333893
0.601501 0.378082 0.345734
0.616577 0.389221 0.356873
0.630615 0.399658 0.367340
0.643402 0.409241 0.376984
0.655029 0.417969 0.385773
0.660217 0.421997 0.389832
0.660431 0.422363 0.390167
0.660645 0.422729 0.390533
0.065277 0.053772 0.026581
0.076172 0.054657 0.027222
0.085602 0.055695 0.028046
0.098511 0.059174 0.030792
0.124847 0.072937 0.042084
0.150208 0.086823 0.053680
0.175873 0.101318 0.066162
0.201569 0.116241 0.079407
0.226471 0.131134 0.092743
0.251831 0.146606 0.106964
0.276917 0.162292 0.121552
0.302551 0.178650 0.137177
0.327698 0.195038 0.152924
0.353180 0.211670 0.169037
0.377594 0.227844 0.184601
0.402557 0.244629 0.201141
0.427094 0.261322 0.217682
0.451294 0.277924 0.234375
0.475647 0.294861 0.251678
0.499451 0.311554 0.268921
0.522888 0.328186 0.286407
0.545013 0.344025 0.303070
0.567657 0.360352 0.320831
0.588470 0.375519 0.337341
0.608917 0.390503 0.354034
0.628082 0.404663 0.370087
0.645416 0.417572 0.384766
0.658722 0.427612 0.395477
0.668152 0.434753 0.402710
0.668365 0.435120 0.403076
0.668579 0.435455 0.403412
0.672241 0.441345 0.409363
0.084686 0.073364 0.037323
0.095276 0.074341 0.038086
0.104462 0.075348 0.038910
0.113525 0.076447 0.039795
0.127045 0.080627 0.043274
0.152557 0.094696 0.055084
0.177734 0.108978 0.067413
0.202667 0.123596 0.080170
0.228302 0.138916 0.093994
0.252899 0.154022 0.107727
0.277557 0.169525 0.122009
0.302704 0.185608 0.137207
0.327698 0.201904 0.152771
0.352386 0.218140 0.168304
0.376648 0.234161 0.183716
0.400757 0.250366 0.199402
0.425018 0.266876 0.215607
0.448486 0.283051 0.231659
0.471558 0.299103 0.247620
0.494354 0.315125 0.263824
0.516632 0.330902 0.279938
0.538086 0.346252 0.295776
0.558746 0.361145 0.311279
0.578796 0.375671 0.326660
0.597931 0.389740 0.341705
0.616089 0.403137 0.356262
0.633179 0.415833 0.370331
0.649323 0.427887 0.384064
0.664062 0.438904 0.396912
0.667816 0.441864 0.402161
0.670502 0.444061 0.406586
0.679230 0.455566 0.420837
0.104034 0.092560 0.048035
0.113647 0.093506 0.048767
0.122803 0.095428 0.050293
0.131805 0.096405 0.051147
0.140747 0.097504 0.052094
0.154785 0.102539 0.056458
0.179871 0.116913 0.068756
0.204681 0.131561 0.081604
0.229340 0.146423 0.094849
0.254486 0.161926 0.109009
0.278992 0.177368 0.123230
0.303864 0.193298 0.138214
0.328369 0.209320 0.153381
0.352692 0.225250 0.168488
0.376678 0.241150 0.183655
0.400726 0.257355 0.199249
0.424103 0.273285 0.214722
0.447479 0.289398 0.230591
0.470306 0.305328 0.246338
0.492615 0.320984 0.261963
0.514160 0.336273 0.277374
0.535004 0.351227 0.292511
0.555420 0.365906 0.307648
0.574493 0.379852 0.321960
0.592834 0.393280 0.336029
0.610291 0.406128 0.349640
0.626556 0.418152 0.362549
0.641571 0.429443 0.374725
0.655579 0.439911 0.386383
0.661652 0.444580 0.392120
0.663483 0.446136 0.395111
0.667511 0.451080 0.401672
0.122986 0.112183 0.059235
0.131805 0.113312 0.060120
0.140808 0.115204 0.061646
0.149750 0.116699 0.062927
0.158600 0.117981 0.064056
0.167480 0.119080 0.065094
0.182373 0.125031 0.070374
0.207184 0.139801 0.083344
0.231659 0.154694 0.096588
0.256348 0.170044 0.110474
0.281036 0.185638 0.124908
0.305237 0.201233 0.139374
0.329773 0.217224 0.154480
0.353394 0.232727 0.169037
0.377167 0.248535 0.184021
0.400818 0.264496 0.199310
0.424194 0.280426 0.214722
0.447266 0.296417 0.230347
0.469940 0.312195 0.245911
0.491791 0.327576 0.261108
0.513031 0.342651 0.276154
0.533630 0.357452 0.291046
0.553467 0.371735 0.305573
0.572449 0.385559 0.319702
0.590576 0.398834 0.333435
0.607361 0.411255 0.346313
0.623260 0.423065 0.358704
0.638000 0.434082 0.370422
0.651489 0.444183 0.381378
0.659088 0.449982 0.388031
0.660278 0.451080 0.389954
0.662079 0.452972 0.392883
0.140930 0.132141 0.070740
0.149597 0.133362 0.071716
0.158539 0.135406 0.073425
0.167603 0.137329 0.075104
0.176453 0.138855 0.076477
0.185242 0.140167 0.077728
0.194092 0.141266 0.078857
0.209229 0.147919 0.084778
0.234070 0.163055 0.098358
0.258392 0.178223 0.112061
0.282867 0.193817 0.126434
0.307159 0.209564 0.141083
0.331024 0.225006 0.155396
0.354553 0.240540 0.169952
0.378174 0.256256 0.184784
0.401672 0.272156 0.200012
0.424988 0.288116 0.215393
0.447845 0.303925 0.230804
0.470093 0.319458 0.245972
0.491791 0.334778 0.261047
0.513000 0.349854 0.276031
0.533356 0.364471 0.290649
0.552948 0.378662 0.304962
0.571533 0.392181 0.318665
0.589325 0.405243 0.332031
0.606049 0.417542 0.344757
0.621643 0.429138 0.356781
0.636108 0.439972 0.368134
0.649323 0.449951 0.378693
0.657654 0.456268 0.385712
0.658661 0.457214 0.387329
0.659729 0.458221 0.389069
0.158447 0.151642 0.082092
0.166992 0.153259 0.083344
0.176086 0.155884 0.085541
0.185181 0.158295 0.087677
0.194092 0.159973 0.089233
0.202820 0.161285 0.090546
0.211670 0.162720 0.091980
0.220459 0.163940 0.093201
0.236420 0.171509 0.100128
0.260651 0.186676 0.113892
0.285095 0.202332 0.128265
0.308899 0.217621 0.142334
0.332428 0.232971 0.156494
0.355988 0.248535 0.171051
0.379517 0.264252 0.185883
0.402893 0.280121 0.201019
0.426025 0.295959 0.216248
0.448547 0.311615 0.231415
0.470673 0.327087 0.246460
0.492279 0.342316 0.261444
0.513214 0.357269 0.276215
0.533447 0.371796 0.290649
0.552765 0.385742 0.304688
0.571320 0.399292 0.318359
0.588928 0.412262 0.331512
0.605469 0.424469 0.344025
0.620911 0.435944 0.355896
0.635193 0.446655 0.366974
0.648102 0.456360 0.377167
0.656860 0.463013 0.384399
0.657684 0.463867 0.385742
0.658539 0.464661 0.387146
0.175812 0.171417 0.093719
0.184265 0.173279 0.095154
0.193298 0.176178 0.097595
0.202454 0.178925 0.100067
0.211426 0.181000 0.102020
0.220306 0.182770 0.103760
0.229095 0.184235 0.105225
0.237976 0.185730 0.106812
0.246674 0.187012 0.108154
0.263306 0.195465 0.115967
0.286987 0.210510 0.129639
0.310486 0.225708 0.143494
0.334137 0.241150 0.157776
0.357422 0.256561 0.172211
0.380920 0.272339 0.187042
0.404205 0.288177 0.202118
0.427185 0.303986 0.217255
0.449829 0.319702 0.232483
0.471741 0.335022 0.247375
0.493011 0.350098 0.262085
0.513794 0.364929 0.276703
0.533875 0.379425 0.291046
0.553162 0.393341 0.305023
0.571411 0.406708 0.318359
0.588959 0.419617 0.331482
0.605316 0.431732 0.343811
0.620544 0.443085 0.355408
0.634705 0.453705 0.366394
0.647522 0.463379 0.376434
0.656372 0.470123 0.383636
0.657166 0.470856 0.384857
0.657928 0.471649 0.386139
0.192902 0.191132 0.105377
0.201355 0.193481 0.107208
0.210419 0.196899 0.110077
0.219604 0.199829 0.112793
0.228546 0.202148 0.114960
0.237518 0.204193 0.117004
0.246460 0.206085 0.118958
0.255249 0.207703 0.120636
0.264038 0.209137 0.122131
0.272339 0.210114 0.123138
0.289001 0.218811 0.131042
0.312439 0.233978 0.144928
0.335876 0.249390 0.159119
0.359222 0.264923 0.173615
0.382568 0.280640 0.188416
0.405823 0.296478 0.203461
0.428619 0.312195 0.218506
0.450928 0.327698 0.233429
0.472809 0.343048 0.248322
0.494049 0.358154 0.263000
0.514740 0.372955 0.277588
0.534637 0.387360 0.291809
0.553711 0.401154 0.305542
0.571991 0.414520 0.318939
0.589264 0.427277 0.331757
0.605530 0.439301 0.343964
0.620636 0.450531 0.355438
0.634735 0.461151 0.366333
0.647400 0.470703 0.376190
0.656158 0.477386 0.383240
0.656860 0.478088 0.384399
0.657532 0.478821 0.385529
0.209900 0.210938 0.117218
0.218262 0.213837 0.119415
0.227295 0.217499 0.122528
0.236633 0.220978 0.125763
0.245697 0.223663 0.128326
0.254761 0.226013 0.130707
0.263672 0.227997 0.132721
0.272552 0.229919 0.134735
0.280975 0.231110 0.135956
0.289093 0.232086 0.136871
0.297211 0.232971 0.137726
0.314331 0.242371 0.146301
0.337677 0.257721 0.160492
0.361023 0.273315 0.175049
0.384369 0.289062 0.189850
0.407379 0.304840 0.204803
0.430084 0.320465 0.219727
0.452271 0.335938 0.234558
0.473999 0.351257 0.249359
0.495239 0.366302 0.264069
0.515869 0.381073 0.278595
0.535583 0.395325 0.292633
0.554535 0.409119 0.306274
0.572723 0.422455 0.319611
0.589874 0.435120 0.332336
0.606018 0.447083 0.344421
0.621033 0.458282 0.355804
0.634918 0.468719 0.366486
0.647491 0.478241 0.376251
0.656097 0.484833 0.383179
0.656738 0.485535 0.384216
0.657379 0.486176 0.385223
0.226807 0.230927 0.129303
0.235046 0.234100 0.131653
0.244110 0.238373 0.135254
0.253357 0.242157 0.138733
0.262604 0.245209 0.141724
0.271759 0.247864 0.144409
0.280731 0.250092 0.146759
0.289612 0.252045 0.148804
0.297668 0.253174 0.149841
0.305725 0.254211 0.150787
0.313843 0.255157 0.151733
0.321869 0.256042 0.152588
0.339661 0.266205 0.162018
0.362976 0.281830 0.176544
0.386078 0.297516 0.191284
0.409058 0.313232 0.206146
0.431702 0.328857 0.221039
0.453827 0.344330 0.235870
0.475464 0.359619 0.250641
0.496521 0.374603 0.265228
0.516998 0.389313 0.279633
0.536591 0.403473 0.293518
0.555573 0.417267 0.307281
0.573456 0.430420 0.320312
0.590607 0.443115 0.333038
0.606598 0.454987 0.345001
0.621552 0.466156 0.356323
0.635254 0.476501 0.366852
0.647858 0.486053 0.376648
0.656158 0.492432 0.383240
0.656738 0.493042 0.384216
0.657349 0.493683 0.385162
0.243652 0.251068 0.141632
0.251709 0.254547 0.144135
0.260773 0.259338 0.148132
0.270081 0.263306 0.151825
0.279419 0.266815 0.155243
0.288635 0.269714 0.158203
0.297699 0.272217 0.160858
0.306213 0.274048 0.162659
0.314270 0.275330 0.163849
0.322327 0.276459 0.164886
0.330353 0.277435 0.165894
0.338501 0.278534 0.166931
0.346558 0.279449 0.167908
0.364899 0.290375 0.178070
0.388000 0.306030 0.192780
0.410828 0.321716 0.207520
0.433258 0.337311 0.222351
0.455292 0.352753 0.237152
0.476990 0.368073 0.251953
0.498016 0.383087 0.266571
0.518280 0.397675 0.280792
0.537781 0.411743 0.294647
0.556610 0.425476 0.308228
0.574493 0.438690 0.321350
0.591461 0.451233 0.333893
0.607330 0.463013 0.345734
0.622223 0.474182 0.356995
0.635803 0.484436 0.367401
0.648285 0.493896 0.377075
0.656281 0.500031 0.383453
0.656830 0.500702 0.384369
0.657379 0.501282 0.385223
0.260468 0.271912 0.154510
0.268311 0.275421 0.156982
0.277252 0.280243 0.160980
0.286499 0.284485 0.164917
0.296021 0.288300 0.168701
0.305389 0.291656 0.172150
0.314575 0.294464 0.175110
0.322754 0.296173 0.176697
0.330780 0.297546 0.177979
0.338867 0.298828 0.179169
0.346924 0.299988 0.180328
0.355011 0.301147 0.181427
0.363037 0.302094 0.182434
0.371002 0.302979 0.183319
0.389923 0.314636 0.194275
0.412598 0.330292 0.208984
0.435089 0.345947 0.223877
0.457092 0.361420 0.238708
0.478577 0.376617 0.253418
0.499390 0.391479 0.267792
0.519562 0.406036 0.281921
0.539062 0.420197 0.295868
0.557709 0.433868 0.309326
0.575623 0.447021 0.322388
0.592407 0.459473 0.334808
0.608215 0.471283 0.346649
0.622986 0.482361 0.357819
0.636566 0.492584 0.368195
0.648895 0.501923 0.377716
0.656494 0.507843 0.383820
0.657013 0.508392 0.384644
0.657532 0.509003 0.385498
0.277100 0.292175 0.167114
0.284912 0.296478 0.170044
0.293701 0.301453 0.174133
0.302979 0.305878 0.178284
0.312500 0.310028 0.182404
0.321930 0.313690 0.186157
0.331116 0.316650 0.189270
0.339172 0.318451 0.190887
0.347290 0.319977 0.192383
0.355316 0.321350 0.193665
0.363373 0.322601 0.194885
0.371399 0.323792 0.196075
0.379364 0.324799 0.197113
0.387329 0.325745 0.198029
0.395233 0.326599 0.198883
0.414612 0.339020 0.210602
0.436981 0.354645 0.225433
0.458740 0.369965 0.240112
0.480133 0.385101 0.254700
0.500885 0.399994 0.269104
0.521088 0.414581 0.283325
0.540466 0.428680 0.297150
0.559021 0.442322 0.310547
0.576721 0.455322 0.323456
0.593414 0.467712 0.335815
0.609161 0.479523 0.347595
0.623810 0.490509 0.358643
0.637299 0.500763 0.368988
0.649475 0.510010 0.378357
0.656738 0.515594 0.384186
0.657196 0.516144 0.384949
0.657715 0.516754 0.385803
0.293579 0.312653 0.179932
0.301239 0.317352 0.183014
0.309875 0.322327 0.187103
0.319244 0.327332 0.191772
0.328827 0.331726 0.196167
0.338409 0.335754 0.200348
0.347351 0.338715 0.203400
0.355469 0.340546 0.205109
0.363525 0.342194 0.206696
0.371582 0.343750 0.208160
0.379578 0.345123 0.209503
0.387604 0.346313 0.210693
0.395477 0.347412 0.211761
0.403412 0.348389 0.212738
0.411285 0.349304 0.213654
0.419159 0.350281 0.214630
0.438873 0.363281 0.227020
0.460602 0.378601 0.241669
0.481812 0.393707 0.256134
0.502502 0.408539 0.270508
0.522552 0.423096 0.284668
0.541870 0.437164 0.298462
0.560333 0.450684 0.311768
0.577942 0.463715 0.324677
0.594635 0.476105 0.336975
0.610229 0.487793 0.348663
0.624756 0.498749 0.359619
0.638153 0.508911 0.369873
0.650269 0.518158 0.379242
0.657013 0.523346 0.384644
0.657471 0.523895 0.385406
0.657959 0.524475 0.386200
0.309784 0.332947 0.192749
0.317444 0.338226 0.196167
0.325867 0.343292 0.200256
0.335144 0.348328 0.204956
0.344727 0.352997 0.209625
0.354401 0.357300 0.214111
0.363281 0.360382 0.217285
0.371368 0.362457 0.219208
0.379425 0.364258 0.220947
0.387543 0.365967 0.222595
0.395538 0.367401 0.224030
0.403473 0.368591 0.225189
0.411407 0.369812 0.226379
0.419220 0.370819 0.227386
0.427094 0.371796 0.228363
0.434906 0.372803 0.229370
0.442596 0.373688 0.230316
0.462341 0.387146 0.243103
0.483551 0.402252 0.257629
0.504150 0.417023 0.271973
0.524200 0.431549 0.286133
0.543365 0.445587 0.299835
0.561707 0.459045 0.313019
0.579224 0.471985 0.325836
0.595825 0.484406 0.338196
0.611328 0.496033 0.349792
0.625732 0.506866 0.360657
0.639038 0.516937 0.370758
0.651031 0.526093 0.380066
0.657288 0.531036 0.385101
0.657776 0.531586 0.385864
0.658234 0.532104 0.386597
0.325745 0.353119 0.205505
0.333344 0.358704 0.209106
0.341614 0.363983 0.213287
0.350739 0.369080 0.218018
0.360352 0.374054 0.223022
0.370087 0.378601 0.227814
0.378906 0.381836 0.231110
0.387024 0.384064 0.233246
0.395111 0.386078 0.235138
0.403168 0.387787 0.236847
0.411163 0.389343 0.238373
0.419006 0.390594 0.239563
0.426849 0.391815 0.240784
0.434692 0.392883 0.241852
0.442627 0.394043 0.243011
0.450317 0.394989 0.243988
0.457947 0.395905 0.244934
0.465454 0.396790 0.245850
0.485382 0.410706 0.259216
0.505920 0.425476 0.273529
0.525726 0.439880 0.287506
0.544830 0.453857 0.301147
0.563171 0.467377 0.314423
0.580566 0.480255 0.327179
0.596985 0.492523 0.339325
0.612427 0.504089 0.350861
0.626770 0.514984 0.361694
0.639984 0.524994 0.371796
0.651917 0.534058 0.380981
0.657623 0.538544 0.385651
0.658081 0.539154 0.386383
0.658539 0.539673 0.387085
0.341461 0.373108 0.218262
0.348969 0.379333 0.222229
0.356903 0.384155 0.226013
0.365936 0.389587 0.230988
0.375580 0.394806 0.236267
0.385345 0.399414 0.241211
0.394196 0.402924 0.244812
0.402283 0.405334 0.247040
0.410370 0.407379 0.249054
0.418427 0.409241 0.250916
0.426331 0.410828 0.252441
0.434204 0.412201 0.253784
0.442017 0.413452 0.255035
0.449890 0.414734 0.256287
0.457672 0.415833 0.257416
0.465332 0.416748 0.258362
0.472992 0.417786 0.259430
0.480408 0.418671 0.260345
0.487762 0.419586 0.261322
0.507629 0.433777 0.274994
0.527313 0.448090 0.288910
0.546295 0.462006 0.302490
0.564575 0.475494 0.315765
0.581879 0.488342 0.328400
0.598267 0.500580 0.340576
0.613586 0.512115 0.352020
0.627930 0.522980 0.362885
0.640961 0.532867 0.372833
0.652802 0.541931 0.381958
0.657959 0.546021 0.386200
0.658386 0.546539 0.386871
0.659668 0.548096 0.388977
0.356781 0.392822 0.230896
0.364258 0.399384 0.235107
0.371918 0.404266 0.238831
0.380798 0.409607 0.243713
0.390381 0.415009 0.249146
0.400177 0.419983 0.254517
0.408997 0.423462 0.258118
0.417114 0.426025 0.260559
0.425140 0.428162 0.262665
0.433228 0.430267 0.264740
0.441101 0.431824 0.266266
0.448914 0.433319 0.267731
0.456757 0.434662 0.269073
0.464630 0.435913 0.270386
0.472290 0.437012 0.271454
0.480011 0.438080 0.272552
0.487518 0.439056 0.273560
0.494965 0.440063 0.274597
0.502197 0.440918 0.275513
0.509430 0.441956 0.276550
0.529083 0.456268 0.290497
0.547974 0.470154 0.304016
0.566101 0.483551 0.317139
0.583282 0.496307 0.329742
0.599548 0.508514 0.341827
0.614838 0.520020 0.353241
0.628937 0.530640 0.363922
0.641937 0.540588 0.373840
0.653717 0.549622 0.382965
0.658325 0.553253 0.386749
0.658722 0.553802 0.387451
0.661255 0.556702 0.391510
0.371735 0.412201 0.243347
0.379150 0.418976 0.247742
0.386536 0.423859 0.251312
0.395233 0.429169 0.256195
0.404785 0.434631 0.261719
0.414520 0.439697 0.267212
0.423401 0.443604 0.271240
0.431519 0.446259 0.273834
0.439545 0.448486 0.276031
0.447540 0.450562 0.278107
0.455383 0.452271 0.279785
0.463196 0.453827 0.281342
0.471039 0.455200 0.282715
0.478851 0.456573 0.284088
0.486511 0.457672 0.285248
0.494110 0.458771 0.286346
0.501678 0.459808 0.287445
0.509033 0.460815 0.288452
0.516235 0.461700 0.289398
0.523224 0.462555 0.290344
0.530792 0.464203 0.291992
0.549591 0.478027 0.305511
0.567627 0.491364 0.318542
0.584778 0.504120 0.331146
0.600891 0.516235 0.343140
0.616058 0.527649 0.354462
0.630157 0.538330 0.365173
0.643036 0.548187 0.375031
0.654663 0.557098 0.383972
0.658661 0.560333 0.387360
0.659088 0.560822 0.388031
0.663269 0.565643 0.394806
0.386261 0.431122 0.255585
0.393494 0.437836 0.259949
0.400726 0.442963 0.263580
0.409180 0.448151 0.268311
0.418518 0.453644 0.273895
0.428375 0.458923 0.279663
0.437256 0.462952 0.283875
0.445312 0.465698 0.286530
0.453430 0.468201 0.289062
0.461334 0.470276 0.291138
0.469177 0.471985 0.292877
0.476990 0.473663 0.294556
0.484772 0.475159 0.296051
0.492523 0.476440 0.297363
0.500183 0.477661 0.298584
0.507721 0.478790 0.299774
0.515259 0.479858 0.300903
0.522583 0.480835 0.301910
0.529724 0.481781 0.302887
0.536743 0.482697 0.303894
0.543518 0.483582 0.304840
0.551239 0.485657 0.306946
0.569153 0.498962 0.319977
0.586212 0.511688 0.332520
0.602264 0.523743 0.344482
0.617340 0.535095 0.355774
0.631287 0.545715 0.366333
0.644135 0.555511 0.376129
0.655670 0.564362 0.385071
0.659027 0.567139 0.387939
0.659454 0.567657 0.388611
0.665619 0.574615 0.398590
0.400391 0.449493 0.267487
0.407410 0.456146 0.271790
0.414429 0.461365 0.275452
0.422607 0.466461 0.280060
0.431854 0.471924 0.285614
0.441650 0.477448 0.291656
0.450592 0.481598 0.296082
0.458649 0.484467 0.298920
0.466736 0.487091 0.301575
0.474640 0.489258 0.303711
0.482391 0.491028 0.305573
0.490234 0.492798 0.307343
0.497925 0.494263 0.308838
0.505646 0.495636 0.310211
0.513275 0.496857 0.311493
0.520844 0.498016 0.312714
0.528259 0.499115 0.313843
0.535583 0.500122 0.314941
0.542694 0.501099 0.315948
0.549591 0.501984 0.316925
0.556335 0.502869 0.317871
0.562836 0.503723 0.318787
0.570770 0.506378 0.321442
0.587646 0.518951 0.333862
0.603668 0.531036 0.345795
0.618591 0.542267 0.356995
0.632477 0.552826 0.367523
0.645172 0.562531 0.377258
0.656677 0.571381 0.386139
0.659454 0.573700 0.388550
0.659851 0.574249 0.389221
0.668304 0.583740 0.402985
0.414032 0.467224 0.279053
0.420837 0.473846 0.283356
0.427612 0.479218 0.287018
0.435577 0.484161 0.291443
0.444611 0.489624 0.297028
0.454376 0.495209 0.303192
0.463348 0.499512 0.307831
0.471344 0.502472 0.310760
0.479431 0.505127 0.313538
0.487244 0.507294 0.315735
0.495026 0.509216 0.317719
0.502777 0.510986 0.319519
0.510468 0.512512 0.321075
0.518188 0.513916 0.322510
0.525787 0.515167 0.323853
0.533295 0.516388 0.325134
0.540649 0.517456 0.326233
0.547913 0.518524 0.327362
0.554962 0.519470 0.328400
0.561859 0.520386 0.329376
0.568573 0.521271 0.330383
0.575073 0.522186 0.331329
0.581238 0.523041 0.332245
0.589203 0.526031 0.335297
0.605103 0.537994 0.347168
0.619934 0.549255 0.358307
0.633698 0.559753 0.368774
0.646271 0.569336 0.378387
0.657654 0.578125 0.387177
0.659790 0.579926 0.389160
0.660217 0.580505 0.389862
0.671478 0.593018 0.408173
0.427124 0.484467 0.290314
0.433716 0.490906 0.294525
0.440247 0.496216 0.298096
0.447906 0.501007 0.302277
0.456726 0.506317 0.307709
0.466370 0.511963 0.313995
0.475494 0.516571 0.319061
0.483459 0.519531 0.322083
0.491486 0.522278 0.324921
0.499268 0.524506 0.327209
0.507019 0.526489 0.329254
0.514709 0.528229 0.331055
0.522400 0.529816 0.332703
0.529999 0.531250 0.334198
0.537628 0.532562 0.335632
0.545044 0.533752 0.336884
0.552429 0.534882 0.338074
0.559662 0.535980 0.339264
0.566650 0.536896 0.340271
0.573517 0.537872 0.341309
0.580170 0.538788 0.342285
0.586517 0.539612 0.343231
0.592682 0.540436 0.344116
0.598511 0.541260 0.345062
0.606537 0.544708 0.348541
0.621277 0.555817 0.359619
0.634979 0.566315 0.370026
0.647461 0.575836 0.379608
0.658722 0.584564 0.388336
0.660187 0.585846 0.389801
0.660583 0.586395 0.390442
0.675446 0.602844 0.414642
0.439636 0.500977 0.301117
0.446014 0.507141 0.305176
0.452301 0.512512 0.308746
0.459656 0.517059 0.312683
0.468323 0.522278 0.318054
0.477783 0.527863 0.324310
0.486938 0.532562 0.329590
0.494843 0.535675 0.332733
0.502838 0.538361 0.335632
0.510590 0.540680 0.337982
0.518311 0.542786 0.340210
0.526001 0.544556 0.342102
0.533600 0.546143 0.343750
0.541229 0.547546 0.345276
0.548767 0.548889 0.346680
0.556183 0.550140 0.348022
0.563446 0.551270 0.349213
0.570618 0.552338 0.350372
0.577637 0.553345 0.351440
0.584442 0.554260 0.352478
0.591034 0.555206 0.353516
0.597412 0.556091 0.354462
0.603485 0.556885 0.355408
0.609314 0.557739 0.356354
0.614807 0.558472 0.357208
0.622620 0.562134 0.360931
0.636169 0.572449 0.371246
0.648590 0.581970 0.380768
0.659729 0.590576 0.389435
0.660583 0.591461 0.390442
0.660980 0.591980 0.391083
0.680023 0.612946 0.422180
0.451569 0.516602 0.311371
0.457733 0.522583 0.315308
0.463806 0.527924 0.318848
0.470764 0.532104 0.322449
0.479126 0.537140 0.327606
0.488495 0.542664 0.333832
0.497711 0.547668 0.339539
0.505554 0.550659 0.342651
0.513519 0.553558 0.345764
0.521179 0.555786 0.348114
0.528900 0.557892 0.350342
0.536530 0.559662 0.352234
0.544098 0.561279 0.353943
0.551636 0.562775 0.355591
0.559174 0.564178 0.357086
0.566498 0.565369 0.358368
0.573822 0.566528 0.359650
