filter/WARM.CUBE
#Created by: Adobe Photoshop Export Color Lookup Plugin
TITLE "25338f488af2c45912c15ebab325e363 2.jpg"
#LUT size
LUT_3D_SIZE 5
#data domain
#LUT data points
DOMAIN_MIN 0.000000 0.000000 0.000000
DOMAIN_MAX 0.903226 0.903226 0.903226
0.000000 0.000000 0.000000
0.190613 0.089661 0.071838
0.355957 0.191406 0.164398
0.507812 0.294922 0.263580
0.622681 0.378693 0.346344
0.140930 0.132141 0.070740
0.209229 0.147919 0.084778
0.378174 0.256256 0.184784
0.533356 0.364471 0.290649
0.649323 0.449951 0.378693
0.260468 0.271912 0.154510
0.322754 0.296173 0.176697
0.389923 0.314636 0.194275
0.539062 0.420197 0.295868
0.648895 0.501923 0.377716
0.371735 0.412201 0.243347
0.431519 0.446259 0.273834
0.486511 0.457672 0.285248
0.549591 0.478027 0.305511
0.654663 0.557098 0.383972
0.462921 0.531464 0.321198
0.515594 0.564697 0.351959
0.568756 0.578156 0.366577
0.616730 0.585358 0.374664
0.660919 0.600891 0.390961
0.115356 0.069122 0.084412
0.196655 0.093384 0.112122
0.361023 0.195526 0.209015
0.512573 0.299744 0.311005
0.627045 0.384094 0.395020
0.168213 0.149414 0.123108
0.313812 0.241852 0.210022
0.473083 0.350677 0.317108
0.621674 0.458221 0.427094
0.727600 0.536469 0.510651
0.306274 0.311737 0.230255
0.415741 0.386871 0.302917
0.482239 0.407806 0.323822
0.626404 0.513794 0.430420
0.732330 0.594971 0.514404
0.438354 0.479645 0.344666
0.517578 0.534943 0.400055
0.571289 0.547058 0.412567
0.633148 0.568237 0.434296
0.734344 0.646454 0.514374
0.535248 0.609558 0.429962
0.593140 0.646942 0.470734
0.645294 0.660858 0.486267
0.691895 0.668030 0.494476
0.731659 0.681152 0.508575
0.189789 0.121246 0.155945
0.291046 0.173645 0.230469
0.367218 0.199768 0.256775
0.517212 0.303802 0.360840
0.630402 0.387787 0.445801
0.290924 0.247772 0.259735
0.405548 0.327148 0.339050
0.482178 0.357697 0.370941
0.626038 0.461487 0.479218
0.729950 0.538452 0.562866
0.321625 0.318390 0.281738
0.446075 0.414124 0.376984
0.582947 0.512482 0.477356
0.722412 0.619141 0.588623
0.825134 0.700439 0.675415
0.448883 0.484802 0.398254
0.561005 0.578247 0.493835
0.667847 0.651215 0.569641
0.730682 0.676025 0.596069
0.828949 0.754425 0.679077
0.557770 0.629974 0.502472
0.656006 0.713928 0.592590
0.743774 0.770294 0.653198
0.789764 0.778595 0.663086
0.829041 0.792908 0.679230
0.262665 0.177216 0.235992
0.390442 0.263672 0.364136
0.445251 0.273407 0.376526
0.522675 0.307831 0.411469
0.633362 0.390259 0.496185
0.416565 0.356628 0.416290
0.501251 0.417786 0.479584
0.556549 0.431274 0.494568
0.631836 0.465088 0.531891
0.732666 0.539948 0.614288
0.431000 0.415833 0.426544
0.543335 0.509644 0.522766
0.659851 0.592987 0.610077
0.734314 0.630402 0.650238
0.831879 0.707275 0.733154
0.465027 0.492706 0.454620
0.572052 0.584564 0.549530
0.705688 0.690399 0.660614
0.823486 0.780609 0.756805
0.915497 0.856018 0.838379
0.571167 0.637878 0.560669
0.666260 0.720612 0.650238
0.790863 0.821533 0.758636
0.878998 0.881042 0.823334
0.916443 0.895721 0.840088
0.333923 0.235443 0.321838
0.464355 0.332550 0.469238
0.525879 0.351593 0.497589
0.575745 0.360718 0.506470
0.636749 0.392792 0.538940
0.518707 0.446930 0.554535
0.579315 0.490540 0.598480
0.633209 0.507416 0.616211
0.681641 0.515442 0.625977
0.731140 0.537445 0.652130
0.537903 0.514374 0.572388
0.637054 0.602417 0.662567
0.733856 0.670471 0.734039
0.780792 0.680054 0.744263
0.832153 0.707001 0.773773
0.554596 0.576508 0.584991
0.650879 0.663177 0.674042
0.776245 0.765869 0.782532
0.876221 0.839447 0.861511
0.924347 0.866333 0.890808
0.588654 0.648071 0.615356
0.680084 0.729462 0.701874
0.800262 0.828064 0.807495
0.917694 0.924377 0.911743
0.983856 0.976349 0.968658
